!!!!SEGMENT: pl-wtm--r-1555--001-006_stefani-jozef--msza-no-14-sanctus.krn
!!!cenid: 18xx:1825
!!!COM: Stefani, Józef
!!!COM-rismID: pe30024097
!!!CDT: 1800/04/16-1876/03/19
!!!CNT: Polish
!!!OPR: Msza No 14
!!!OTL: Sanctus
!!!OMV: 006
!!!PDT:
!!!AGN: Sacred; Mass
!!!YEC: Copyright 2022 Narodowy Instytut Fryderyka Chopina (https://polishscores.org)
!!!YEM: License CC-BY-4.0 (https://creativecommons.org/licenses/by/4.0)
!!!SMS-siglum: PL-Wtm
!!!SMS-shelfmark: R 1555
!!!SMS-shelfwork: 001-006 M
!!!SMS-variant:
!!!SMS-altvar:
!!!NIFC-rismSourceID: 1001115185
!!!NIFC-rismChildID: 1001115185
!!!NIFC-islandoraID: pl-wtm:26798
!!!URL-pdf-islandora: https://repozytorium.nifc.pl/islandora/object/pl-wtm%3A26798/datastream/PDF/view
!!!URL-scan: https://polish.musicsources.pl/pl/lokalizacje/galeria/rekopisy/6356 @EN{Scan on Polish Music Sources Website} @PL{Skany w portalu Dziedzictwo Muzyki Polskiej w otwartym dostępie}
!!!IIIF:
!!!ONB-nifc: UWAGA: części Mszy: 1. Kyrie, 2. Gloria, 3. Graduale, 4. Credo, 5. Offertorium, 6. Sanctus, 7. Benedictus, 8. Agnus Dei, 9. Dona nobis
!!!AIN: 1 alto 1 cbass 1 cello 1 clars 1 cor 5 empty 1 fagot 1 flt 1 oboe 1 soprn 1 tenor 1 timpa 1 tromp 1 tromt 1 viola
!!!key:
**kern	**dynam	**kern	**dynam	**kern	**dynam	**kern	**dynam	**kern	**dynam	**kern	**dynam	**kern	**text	**dynam	**kern	**text	**text	**dynam	**kern	**text	**dynam	**kern	**text	**dynam	**kern	**dynam	**kern	**dynam	**kern	**dynam	**kern	**dynam	**kern	**dynam	**kern	**dynam	**kern	**dynam	**kern	**dynam	**kern	**dynam
*	*	*group5	*	*group5	*	*	*	*group4	*	*group4	*	*group3	*	*	*group3	*	*	*	*group3	*	*	*group3	*	*	*group2	*	*group2	*	*group2	*	*group1	*	*group1	*	*group1	*	*group1	*	*group1	*	*group1	*
*part19	*	*part18	*	*part17	*	*part16	*	*part15	*	*part14	*	*part13	*	*	*part12	*	*	*	*part11	*	*	*part10	*	*	*part9	*	*part8	*	*part7	*	*part6	*	*part5	*	*part4	*	*part3	*	*part2	*	*part1	*
*staff19	*	*staff18	*	*staff17	*	*staff16	*	*staff15	*	*staff14	*	*staff13	*	*	*staff12	*	*	*	*staff11	*	*	*staff10	*	*	*staff9	*	*staff8	*	*staff7	*	*staff6	*	*staff5	*	*staff4	*	*staff3	*	*staff2	*	*staff1	*
*Itimpa	*	*Icbass	*	*Icello	*	*Iviola	*	*Iempty	*	*Iempty	*	*Iempty	*	*	*Itenor	*	*	*	*Ialto	*	*	*Isoprn	*	*	*Iempty	*	*Itromt	*	*Iempty	*	*Itromp	*	*Ifagot	*	*Icor	*	*Iclars	*	*Ioboe	*	*Iflt	*
*I"Timpani c. g	*	*I"C: Baſsi	*	*I"Violoncelli	*	*I"Viole	*	*	*	*I""Violini	*	*I"Baſsi	*	*	*I"Tenori	*	*	*	*I"Alto	*	*	*I"Soprani	*	*	*	*	*I"Tromboni	*	*	*	*I"in C Trombe	*	*I"Fagotti	*	*I"Corni in C	*	*I"in C Clarinetti	*	*I"Oboe	*	*I"Flautti	*
*I'timp	*	*I'cb	*	*I'vlc	*	*I'vla	*	*	*	*I''vl I	*	*I'B	*	*	*I'T	*	*	*	*I'A	*	*	*I'S	*	*	*	*	*I'trb	*	*	*	*I'trm	*	*I'fag	*	*I'cor	*	*I'cl	*	*I'ob	*	*I'fl	*
*stria1	*	*	*	*	*	*	*	*	*	*	*	*	*	*	*	*	*	*	*	*	*	*	*	*	*	*	*	*	*	*	*	*	*	*	*	*	*	*	*	*	*	*
*clefF4	*	*clefF4	*	*clefF4	*	*clefC3	*	*clefG2	*	*clefG2	*	*clefF4	*	*	*clefC4	*	*	*	*clefC3	*	*	*clefG2	*	*	*clefF4	*	*clefC4	*	*clefC3	*	*clefG2	*	*clefF4	*	*clefG2	*	*clefG2	*	*clefG2	*	*clefG2	*
*	*	*	*	*	*	*	*	*	*	*	*	*	*	*	*	*	*	*	*	*	*	*	*	*	*	*	*	*	*	*	*	*	*	*	*	*	*	*	*	*	*	*
*k[]	*	*k[]	*	*k[]	*	*k[]	*	*k[]	*	*k[]	*	*k[]	*	*	*k[]	*	*	*	*k[]	*	*	*k[]	*	*	*k[]	*	*k[]	*	*k[]	*	*k[]	*	*k[]	*	*k[]	*	*k[]	*	*k[]	*	*k[]	*
*C:	*	*C:	*	*C:	*	*C:	*	*C:	*	*C:	*	*C:	*	*	*C:	*	*	*	*C:	*	*	*C:	*	*	*C:	*	*C:	*	*C:	*	*C:	*	*C:	*	*C:	*	*C:	*	*C:	*	*C:	*
*M4/4	*	*M4/4	*	*M4/4	*	*M4/4	*	*M4/4	*	*M4/4	*	*M4/4	*	*	*M4/4	*	*	*	*M4/4	*	*	*M4/4	*	*	*M4/4	*	*M4/4	*	*M4/4	*	*M4/4	*	*M4/4	*	*M4/4	*	*M4/4	*	*M4/4	*	*M4/4	*
*met(c)	*	*met(c)	*	*met(c)	*	*met(c)	*	*met(c)	*	*met(c)	*	*met(c)	*	*	*met(c)	*	*	*	*met(c)	*	*	*met(c)	*	*	*met(c)	*	*met(c)	*	*met(c)	*	*met(c)	*	*met(c)	*	*met(c)	*	*met(c)	*	*met(c)	*	*met(c)	*
*>[A,B,B1,B,B2,C]	*>[A,B,B1,B,B2,C]	*>[A,B,B1,B,B2,C]	*>[A,B,B1,B,B2,C]	*>[A,B,B1,B,B2,C]	*>[A,B,B1,B,B2,C]	*>[A,B,B1,B,B2,C]	*>[A,B,B1,B,B2,C]	*>[A,B,B1,B,B2,C]	*>[A,B,B1,B,B2,C]	*>[A,B,B1,B,B2,C]	*>[A,B,B1,B,B2,C]	*>[A,B,B1,B,B2,C]	*>[A,B,B1,B,B2,C]	*>[A,B,B1,B,B2,C]	*>[A,B,B1,B,B2,C]	*>[A,B,B1,B,B2,C]	*>[A,B,B1,B,B2,C]	*>[A,B,B1,B,B2,C]	*>[A,B,B1,B,B2,C]	*>[A,B,B1,B,B2,C]	*>[A,B,B1,B,B2,C]	*>[A,B,B1,B,B2,C]	*>[A,B,B1,B,B2,C]	*>[A,B,B1,B,B2,C]	*>[A,B,B1,B,B2,C]	*>[A,B,B1,B,B2,C]	*>[A,B,B1,B,B2,C]	*>[A,B,B1,B,B2,C]	*>[A,B,B1,B,B2,C]	*>[A,B,B1,B,B2,C]	*>[A,B,B1,B,B2,C]	*>[A,B,B1,B,B2,C]	*>[A,B,B1,B,B2,C]	*>[A,B,B1,B,B2,C]	*>[A,B,B1,B,B2,C]	*>[A,B,B1,B,B2,C]	*>[A,B,B1,B,B2,C]	*>[A,B,B1,B,B2,C]	*>[A,B,B1,B,B2,C]	*>[A,B,B1,B,B2,C]	*>[A,B,B1,B,B2,C]	*>[A,B,B1,B,B2,C]
*	*	*	*	*	*	*	*	*	*	*	*	*	*	*	*	*	*	*	*	*	*	*	*	*	*	*	*	*	*	*	*	*	*	*	*	*	*^	*	*	*	*	*
*>A	*>A	*>A	*>A	*>A	*>A	*>A	*>A	*>A	*>A	*>A	*>A	*>A	*>A	*>A	*>A	*>A	*>A	*>A	*>A	*>A	*>A	*>A	*>A	*>A	*>A	*>A	*>A	*>A	*>A	*>A	*>A	*>A	*>A	*>A	*>A	*>A	*>A	*>A	*>A	*>A	*>A	*>A	*>A
!	!	!	!	!	!	!	!LO:DY:rj	!	!	!	!LO:DY:b:rj	!	!	!	!	!	!	!	!	!	!	!	!	!	!	!	!	!	!	!	!	!	!	!LO:DY:rj	!	!LO:DY:rj	!	!	!LO:DY:rj	!	!	!LO:TX:a:B:t=Adagio.	!
16r	.	16GG/	f	16r	.	16g 16G\	f	16g/	.	16gg\	f	16r	.	.	16r	.	.	.	16r	.	.	16r	.	.	16r	.	16r	.	16r	.	16r	.	16G 16GG\	f	16gg 16g\	f	16gg/	16gg\	f	16r	.	16r	.
=1	=1	=1	=1	=1	=1	=1	=1	=1	=1	=1	=1	=1	=1	=1	=1	=1	=1	=1	=1	=1	=1	=1	=1	=1	=1	=1	=1	=1	=1	=1	=1	=1	=1	=1	=1	=1	=1	=1	=1	=1	=1	=1	=1
1r	.	4.G\	.	1r	.	4.g 4.G\	.	4.g/	.	4.gg\	.	1r	.	.	1r	.	.	.	1r	.	.	1r	.	.	1r	.	1r	.	1r	.	1r	.	4.G 4.GG\	.	4.gg 4.g\	.	4.gg/	4.gg\	.	1r	.	1r	.
.	.	16r	.	.	.	16r	.	16r	.	16r	.	.	.	.	.	.	.	.	.	.	.	.	.	.	.	.	.	.	.	.	.	.	16r	.	16r	.	16r	16rcyy	.	.	.	.	.
.	.	16GG/	.	.	.	16g 16G\	.	16g/	.	16gg\	.	.	.	.	.	.	.	.	.	.	.	.	.	.	.	.	.	.	.	.	.	.	16G 16GG\	.	16gg 16g\	.	16gg/	16gg\	.	.	.	.	.
.	.	4.G\	.	.	.	4.g 4.G\	.	4.g/	.	4.gg\	.	.	.	.	.	.	.	.	.	.	.	.	.	.	.	.	.	.	.	.	.	.	4.G 4.GG\	.	4.gg 4.g\	.	4.gg/	4.gg\	.	.	.	.	.
.	.	16r	.	.	.	16r	.	16r	.	16r	.	.	.	.	.	.	.	.	.	.	.	.	.	.	.	.	.	.	.	.	.	.	16r	.	16r	.	16r	16rcyy	.	.	.	.	.
.	.	16GG/	.	.	.	16g 16G\	.	16g/	.	16gg\	.	.	.	.	.	.	.	.	.	.	.	.	.	.	.	.	.	.	.	.	.	.	16G 16GG\	.	16gg 16g\	.	16gg/	16gg\	.	.	.	.	.
=2	=2	=2	=2	=2	=2	=2	=2	=2	=2	=2	=2	=2	=2	=2	=2	=2	=2	=2	=2	=2	=2	=2	=2	=2	=2	=2	=2	=2	=2	=2	=2	=2	=2	=2	=2	=2	=2	=2	=2	=2	=2	=2	=2
*	*	*	*	*	*	*2\right	*	*	*	*2\right	*	*	*	*	*	*	*	*	*	*	*	*	*	*	*	*	*	*	*	*	*	*	*2\right	*	*2\right	*	*	*2\right	*	*	*	*	*
2r	.	2.G\	.	2.r	.	2.g 2.G\	.	2.g/	.	2.gg\	.	2.r	.	.	2.r	.	.	.	2r	.	.	2r	.	.	2.r	.	2.r	.	2.r	.	2r	.	2.G 2.GG\	.	2.gg 2.g\	.	2.gg/	2.gg\	.	2r	.	2r	.
4r	.	.	.	.	.	.	.	.	.	.	.	.	.	.	.	.	.	.	4r	.	.	4r	.	.	.	.	.	.	.	.	4r	.	.	.	.	.	.	.	.	4r	.	4r	.
*	*	*	*	*	*	*	*	*	*	*	*	*	*	*	*	*	*	*	*	*	*	*	*	*	*	*	*	*	*	*	*	*	*	*	*	*	*v	*v	*	*	*	*	*
=!|:	=!|:	=!|:	=!|:	=!|:	=!|:	=!|:	=!|:	=!|:	=!|:	=!|:	=!|:	=!|:	=!|:	=!|:	=!|:	=!|:	=!|:	=!|:	=!|:	=!|:	=!|:	=!|:	=!|:	=!|:	=!|:	=!|:	=!|:	=!|:	=!|:	=!|:	=!|:	=!|:	=!|:	=!|:	=!|:	=!|:	=!|:	=!|:	=!|:	=!|:	=!|:	=!|:
*>B	*>B	*>B	*>B	*>B	*>B	*>B	*>B	*>B	*>B	*>B	*>B	*>B	*>B	*>B	*>B	*>B	*>B	*>B	*>B	*>B	*>B	*>B	*>B	*>B	*>B	*>B	*>B	*>B	*>B	*>B	*>B	*>B	*>B	*>B	*>B	*>B	*>B	*>B	*>B	*>B	*>B	*>B
*	*	*	*	*	*	*	*	*	*	*	*	*	*	*	*	*	*	*	*	*	*	*	*	*	*	*	*	*	*	*	*^	*	*	*	*^	*	*	*	*	*	*	*
!LO:SIC:o=4Re\	!LO:DY:b:rj	!	!	!	!	!	!	!	!	!	!	!	!	!LO:DY:b:rj	!	!	!	!LO:DY:b:rj	!	!	!LO:DY:b:rj	!	!	!LO:DY:b:rj	!	!	!	!LO:DY:rj	!	!	!	!	!LO:DY:rj	!	!	!	!	!	!	!	!	!LO:DY:rj	!	!
4GG\	f	4GG/	.	4r	.	4G/	.	4g/	.	4gg\	.	4G\	4.) Pan	f	4G/	3.) Po-	.	f	4g\	2.) Za-	f	4g/	1.) U-	f	4GG/	.	4G/	f	4g\	.	4g/	4g\	f	4G 4GG\	.	4g/	4g\	.	4gg 4g\	.	4gg\	f	4r	.
*	*	*	*	*	*	*	*	*	*	*	*	*	*	*	*	*	*	*	*	*	*	*	*	*	*	*	*	*	*	*	*	*	*	*	*	*v	*v	*	*	*	*	*	*	*
=3	=3	=3	=3	=3	=3	=3	=3	=3	=3	=3	=3	=3	=3	=3	=3	=3	=3	=3	=3	=3	=3	=3	=3	=3	=3	=3	=3	=3	=3	=3	=3	=3	=3	=3	=3	=3	=3	=3	=3	=3	=3	=3	=3
!LO:SIC:o=4Re/	!	!	!	!	!	!	!	!	!	!	!	!	!	!	!	!	!	!	!	!	!	!	!	!	!	!	!LO:N:vis=4	!	!	!	!	!	!	!	!	!	!	!	!	!	!	!	!
4C/	.	4.C/	.	1r	.	4.c\	.	4.cc\	.	4.ccc\	.	4.c\	wie-	.	4.c\	-wta-	.	.	4.cc\	-brzmij-	.	4.cc\	-pad-	.	4.C/	.	4.c\	.	4.cc\	.	4.cc/	4.cc\	.	4.c 4.C\	.	4cc\	.	4.ccc 4.cc\	.	4.ccc\	.	1r	.
4r	.	.	.	.	.	.	.	.	.	.	.	.	.	.	.	.	.	.	.	.	.	.	.	.	.	.	.	.	.	.	.	.	.	.	.	4r	.	.	.	.	.	.	.
.	.	8A\	.	.	.	8a\	.	8a/	.	8aa\	.	8A\	-czny	.	8A\	-rzaj	.	.	8a\	-cie	.	8a/	-niy	.	8A 8AA\	.	8A\	.	8a\	.	8a/	8a\	.	8A 8AA\	.	.	.	8aa 8a\	.	8aa\	.	.	.
2r	.	4G\	.	.	.	4g\	.	4g/	.	4gg\	.	4G\	zaw-	.	4G/	lu-	.	.	4g\	z na-	.	4g/	na	.	4G 4GG\	.	4G/	.	4g\	.	4g/	4g\	.	4G 4GG/	.	4gg 4g\	.	4gg 4g/	.	4gg\	.	.	.
.	.	4E\	.	.	.	4e\	.	4e/	.	4ee\	.	4E\	-sze	.	4E/	-dzki	.	.	4e\	-mi	.	4e/	ko-	.	4E 4EE\	.	4E/	.	4e\	.	4e/	4e\	.	4E 4EE/	.	4ee 4e/	.	4ee 4e/	.	4ee\	.	.	.
*	*	*	*	*	*	*	*	*	*	*	*	*	*	*	*	*	*	*	*	*	*	*	*	*	*	*	*	*	*	*	*v	*v	*	*	*	*	*	*	*	*	*	*	*
!!LO:PB:g=original
=4	=4	=4	=4	=4	=4	=4	=4	=4	=4	=4	=4	=4	=4	=4	=4	=4	=4	=4	=4	=4	=4	=4	=4	=4	=4	=4	=4	=4	=4	=4	=4	=4	=4	=4	=4	=4	=4	=4	=4	=4	=4	=4
*2\right	*	*	*	*	*	*tremolo	*	*tremolo	*	*tremolo	*	*2\right	*	*	*	*	*	*	*2\right	*	*	*	*	*	*	*	*	*	*2\right	*	*	*	*	*	*	*	*	*	*2\right	*	*	*
!LO:SIC:o=2Rett\	!	!	!	!	!	!	!	!	!	!	!	!	!	!	!	!	!	!	!	!	!	!	!	!	!	!	!	!	!	!	!	!	!	!	!	!	!	!	!	!	!	!
2GG\	.	1r	.	1r	.	32gLLL 32G\	.	32g/LLL	.	32gg\LLL	.	2G\	.	.	2G/	ro-	wszę-	.	2g\	Nie-	.	2g/	-la-	.	2.G 2.GG/	.	2.G/	.	2.g\	.	2.g/	.	2.G 2.GG/	.	2.gg 2.g\	.	2.gg 2.g\	.	2.gg\	.	1r	.
.	.	.	.	.	.	32g 32G\	.	32g/	.	32gg\	.	.	.	.	.	.	.	.	.	.	.	.	.	.	.	.	.	.	.	.	.	.	.	.	.	.	.	.	.	.	.	.
.	.	.	.	.	.	32g 32G\	.	32g/	.	32gg\	.	.	.	.	.	.	.	.	.	.	.	.	.	.	.	.	.	.	.	.	.	.	.	.	.	.	.	.	.	.	.	.
.	.	.	.	.	.	32g 32G\	.	32g/	.	32gg\	.	.	.	.	.	.	.	.	.	.	.	.	.	.	.	.	.	.	.	.	.	.	.	.	.	.	.	.	.	.	.	.
.	.	.	.	.	.	32g 32G\	.	32g/	.	32gg\	.	.	.	.	.	.	.	.	.	.	.	.	.	.	.	.	.	.	.	.	.	.	.	.	.	.	.	.	.	.	.	.
.	.	.	.	.	.	32g 32G\	.	32g/	.	32gg\	.	.	.	.	.	.	.	.	.	.	.	.	.	.	.	.	.	.	.	.	.	.	.	.	.	.	.	.	.	.	.	.
.	.	.	.	.	.	32g 32G\	.	32g/	.	32gg\	.	.	.	.	.	.	.	.	.	.	.	.	.	.	.	.	.	.	.	.	.	.	.	.	.	.	.	.	.	.	.	.
.	.	.	.	.	.	32g 32G\	.	32g/	.	32gg\	.	.	.	.	.	.	.	.	.	.	.	.	.	.	.	.	.	.	.	.	.	.	.	.	.	.	.	.	.	.	.	.
.	.	.	.	.	.	32g 32G\	.	32g/	.	32gg\	.	.	.	.	.	.	.	.	.	.	.	.	.	.	.	.	.	.	.	.	.	.	.	.	.	.	.	.	.	.	.	.
.	.	.	.	.	.	32g 32G\	.	32g/	.	32gg\	.	.	.	.	.	.	.	.	.	.	.	.	.	.	.	.	.	.	.	.	.	.	.	.	.	.	.	.	.	.	.	.
.	.	.	.	.	.	32g 32G\	.	32g/	.	32gg\	.	.	.	.	.	.	.	.	.	.	.	.	.	.	.	.	.	.	.	.	.	.	.	.	.	.	.	.	.	.	.	.
.	.	.	.	.	.	32g 32G\	.	32g/	.	32gg\	.	.	.	.	.	.	.	.	.	.	.	.	.	.	.	.	.	.	.	.	.	.	.	.	.	.	.	.	.	.	.	.
.	.	.	.	.	.	32g 32G\	.	32g/	.	32gg\	.	.	.	.	.	.	.	.	.	.	.	.	.	.	.	.	.	.	.	.	.	.	.	.	.	.	.	.	.	.	.	.
.	.	.	.	.	.	32g 32G\	.	32g/	.	32gg\	.	.	.	.	.	.	.	.	.	.	.	.	.	.	.	.	.	.	.	.	.	.	.	.	.	.	.	.	.	.	.	.
.	.	.	.	.	.	32g 32G\	.	32g/	.	32gg\	.	.	.	.	.	.	.	.	.	.	.	.	.	.	.	.	.	.	.	.	.	.	.	.	.	.	.	.	.	.	.	.
.	.	.	.	.	.	32gJJJ 32G\	.	32g/JJJ	.	32gg\JJJ	.	.	.	.	.	.	.	.	.	.	.	.	.	.	.	.	.	.	.	.	.	.	.	.	.	.	.	.	.	.	.	.
!LO:SIC:o=4Re\	!	!	!	!	!	!	!	!	!	!	!	!	!	!	!	!	!	!	!	!	!	!	!	!	!	!	!	!	!	!	!	!	!	!	!	!	!	!	!	!	!	!
4GG\	.	.	.	.	.	4g 4G\	.	4g/	.	4gg\	.	4G\	.	.	4G/	-dzie	-dzie	.	4g\	-ba	.	4g/	-na	.	.	.	.	.	.	.	.	.	.	.	.	.	.	.	.	.	.	.
4r	.	.	.	.	.	4r	.	4r	.	4r	.	4r	.	.	4r	.	.	.	4r	.	.	4r	.	.	4r	.	4r	.	4r	.	4r	.	4r	.	4r	.	4r	.	4r	.	.	p
!	!	!	!	!	!	!	!	!	!	!	!	!	!	!	!	!	!	!	!LO:CL:ed	!	!	!	!	!	!	!	!	!	!	!	!	!	!	!	!	!	!	!	!	!	!	!
*	*	*	*	*	*	*	*	*	*	*	*	*	*	*	*	*	*	*	*clefG2	*	*	*	*	*	*	*	*	*	*	*	*	*	*	*	*	*	*	*	*	*	*	*
=5	=5	=5	=5	=5	=5	=5	=5	=5	=5	=5	=5	=5	=5	=5	=5	=5	=5	=5	=5	=5	=5	=5	=5	=5	=5	=5	=5	=5	=5	=5	=5	=5	=5	=5	=5	=5	=5	=5	=5	=5	=5	=5
*	*	*	*	*	*	*	*	*	*	*	*	*	*	*	*	*	*	*	*	*	*	*	*	*	*	*	*	*	*	*	*	*	*	*	*	*	*^	*	*	*	*	*
!	!	!	!	!	!	!	!	!	!	!	!	!	!	!	!	!	!	!LO:DY:rj	!	!	!LO:DY:a:rj	!	!	!LO:DY:a:rj	!	!	!	!	!	!	!	!LO:DY:rj	!	!LO:DY:a:rj	!	!	!	!	!	!	!	!	!
1r	.	1r	.	2r	.	2r	.	2r	.	2r	.	1r	.	.	4.e\	Bo-	Ku	p	4.g/	Bóg	p	4.cc\	Lu-	p	1r	.	1r	.	1r	.	4.cc 4.g/	pp	4.e\	pp	1r	.	4.ee/	1re	.	4.gg\	p	4.ccc\	.
!	!	!	!	!	!	!	!	!	!	!	!	!	!	!	!	!	!	!	!	!	!	!	!	!	!	!	!	!	!	!	!	!	!	!	!	!	!	!	!	!	!	!	!LO:HP:a
.	.	.	.	.	.	.	.	.	.	.	.	.	.	.	8e\	-giem	nam	.	8g/	nasz	.	8cc\	-du	.	.	.	.	.	.	.	8cc 8a/	.	8e\	.	.	.	8ee/	.	.	8gg\	.	8ccc\	<
!	!	!	!	!	!	!	!	!	!	!	!	!	!	!	!	!	!	!	!	!	!	!	!	!	!	!	!	!	!	!	!	!	!	!	!	!	!	!	!	!	!	!	!
.	.	.	.	4r	.	4r	.	4r	.	4r	.	.	.	.	4e\	prze-	łas-	.	4g/	nie-	.	4cc\	czcią	<	.	.	.	.	.	.	4cc 4g/	.	4e\	.	.	.	4ee/	.	.	4gg\	.	4ccc\	.
!	!	!	!	!	!	!	!	!	!	!	!LO:DY:b:rj	!	!	!	!	!	!	!	!	!	!	!	!	!	!	!	!	!	!	!	!	!	!	!	!	!	!	!	!	!	!	!	!
.	.	.	.	4B\	p	4B/	.	4g/	.	4dd\	p	.	.	.	4B\	-ni-	-ką	.	4g/	-po-	.	4dd\	prze-	.	.	.	.	.	.	.	4dd 4g/	.	4B\	.	.	.	4b/	.	.	4gg\	.	4ddd\	[[
=6	=6	=6	=6	=6	=6	=6	=6	=6	=6	=6	=6	=6	=6	=6	=6	=6	=6	=6	=6	=6	=6	=6	=6	=6	=6	=6	=6	=6	=6	=6	=6	=6	=6	=6	=6	=6	=6	=6	=6	=6	=6	=6	=6
*	*	*	*	*	*	*	*	*	*	*	*	*	*	*	*	*	*	*	*	*	*	*	*	*	*	*	*	*	*	*	*^	*	*	*	*^	*	*	*	*	*	*	*	*
*	*	*	*	*	*	*	*	*	*	*	*	*	*	*	*2\right	*	*	*	*	*	*	*2\right	*	*	*2\right	*	*2\right	*	*	*	*	*	*	*	*	*	*	*	*	*	*	*	*	*2\right	*
!	!	!	!	!	!	!	!	!	!	!	!	!	!	!	!	!	!	!	!	!	!	!	!	!	!	!LO:DY:rj	!	!	!	!LO:DY:rj	!	!	!LO:DY:a:rj	!	!LO:DY:rj	!	!	!	!	!	!	!	!	!	!LO:HP:a
1r	.	2r	.	32c^\LLL	.	32c/LLL	.	32g/LLL	.	32ee^LLL 32cc\	.	2r	.	.	2c\	-knię-	zdię-	.	2g/	-ię-	.	2ee\	-ię-	[	2.G 2.C\	p	2.c^\	.	2.e\	p	2.ee 2.g/	2.ryy	p	2.G 2.C/	p	2.ee^/	2.cc\	p	2.cc/	2.g\	.	2.gg\	.	2.eee\	>
.	.	.	.	32c\	.	32c/	.	32g/	.	32ee 32cc\	.	.	.	.	.	.	.	.	.	.	.	.	.	>	.	.	.	.	.	.	.	.	.	.	.	.	.	.	.	.	.	.	.	.	.
.	.	.	.	32c\	.	32c/	.	32g/	.	32ee 32cc\	.	.	.	.	.	.	.	.	.	.	.	.	.	.	.	.	.	.	.	.	.	.	.	.	.	.	.	.	.	.	.	.	.	.	.
.	.	.	.	32c\	.	32c/	.	32g/	.	32ee 32cc\	.	.	.	.	.	.	.	.	.	.	.	.	.	.	.	.	.	.	.	.	.	.	.	.	.	.	.	.	.	.	.	.	.	.	.
.	.	.	.	32c\	.	32c/	.	32g/	.	32ee 32cc\	.	.	.	.	.	.	.	.	.	.	.	.	.	.	.	.	.	.	.	.	.	.	.	.	.	.	.	.	.	.	.	.	.	.	.
.	.	.	.	32c\	.	32c/	.	32g/	.	32ee 32cc\	.	.	.	.	.	.	.	.	.	.	.	.	.	.	.	.	.	.	.	.	.	.	.	.	.	.	.	.	.	.	.	.	.	.	.
.	.	.	.	32c\	.	32c/	.	32g/	.	32ee 32cc\	.	.	.	.	.	.	.	.	.	.	.	.	.	.	.	.	.	.	.	.	.	.	.	.	.	.	.	.	.	.	.	.	.	.	.
.	.	.	.	32c\	.	32c/	.	32g/	.	32ee 32cc\	.	.	.	.	.	.	.	.	.	.	.	.	.	.	.	.	.	.	.	.	.	.	.	.	.	.	.	.	.	.	.	.	.	.	.
.	.	.	.	32c\	.	32c/	.	32g/	.	32ee 32cc\	.	.	.	.	.	.	.	.	.	.	.	.	.	.	.	.	.	.	.	.	.	.	.	.	.	.	.	.	.	.	.	.	.	.	]
.	.	.	.	32c\	.	32c/	.	32g/	.	32ee 32cc\	.	.	.	.	.	.	.	.	.	.	.	.	.	.	.	.	.	.	.	.	.	.	.	.	.	.	.	.	.	.	.	.	.	.	.
.	.	.	.	32c\	.	32c/	.	32g/	.	32ee 32cc\	.	.	.	.	.	.	.	.	.	.	.	.	.	.	.	.	.	.	.	.	.	.	.	.	.	.	.	.	.	.	.	.	.	.	.
.	.	.	.	32c\	.	32c/	.	32g/	.	32ee 32cc\	.	.	.	.	.	.	.	.	.	.	.	.	.	.	.	.	.	.	.	.	.	.	.	.	.	.	.	.	.	.	.	.	.	.	.
.	.	.	.	32c\	.	32c/	.	32g/	.	32ee 32cc\	.	.	.	.	.	.	.	.	.	.	.	.	.	.	.	.	.	.	.	.	.	.	.	.	.	.	.	.	.	.	.	.	.	.	.
.	.	.	.	32c\	.	32c/	.	32g/	.	32ee 32cc\	.	.	.	.	.	.	.	.	.	.	.	.	.	.	.	.	.	.	.	.	.	.	.	.	.	.	.	.	.	.	.	.	.	.	.
!	!	!	!	!	!	!	!	!	!	!	!	!	!	!	!	!	!	!	!	!	!	!	!	!	!	!	!	!	!	!	!	!	!	!	!	!	!	!	!	!	!	!	!LO:DY:a	!	!LO:DY:a
.	.	.	.	32c\	.	32c/	.	32g/	.	32ee 32cc\	.	.	.	.	.	.	.	.	.	.	.	.	.	.	.	.	.	.	.	.	.	.	.	.	.	.	.	.	.	.	.	.	f	.	f
.	.	.	.	32c\JJJ	.	32c/JJJ	.	32g/JJJ	.	32eeJJJ 32cc\	.	.	.	.	.	.	.	.	.	.	.	.	.	.	.	.	.	.	.	.	.	.	.	.	.	.	.	.	.	.	.	.	.	.	.
.	.	4r	.	4c\	.	4c/	.	4g/	.	4ee 4cc\	.	4r	.	.	4c\	-ty	-ty	.	4g/	-ty	.	4ee\	-ty,	]	.	.	.	.	.	.	.	.	.	.	.	.	.	.	.	.	.	.	.	.	.
!	!	!	!	!	!	!	!LO:DY:rj	!	!	!	!LO:DY:b:rj	!	!	!LO:DY:rj	!	!	!	!LO:DY:rj	!	!	!LO:DY:rj	!	!	!LO:DY:rj	!	!	!	!	!	!	!	!	!	!	!	!	!	!	!	!	!LO:DY:a:rj	!	!	!	!
.	.	4C/	f	4C/	.	4c/	f	4cc\	.	4cc\	f	4c\	Niech	f	4c\	Na	.	f	4cc\	W po-	f	4cc\	U-	f	4r	.	4r	.	4r	.	4cc/	4cc\	.	4r	.	4ryy	4cc\	.	4cc/	4cc\	f	4cc/	.	4ccc\	.
*	*	*	*	*	*	*	*	*	*	*	*	*	*	*	*	*	*	*	*	*	*	*	*	*	*	*	*	*	*	*	*v	*v	*	*	*	*	*	*	*	*	*	*	*	*	*
=7	=7	=7	=7	=7	=7	=7	=7	=7	=7	=7	=7	=7	=7	=7	=7	=7	=7	=7	=7	=7	=7	=7	=7	=7	=7	=7	=7	=7	=7	=7	=7	=7	=7	=7	=7	=7	=7	=7	=7	=7	=7	=7	=7	=7
*	*	*	*	*	*	*^	*	*	*	*	*	*	*	*	*	*	*	*	*	*	*	*	*	*	*^	*	*	*	*	*	*	*	*	*	*	*	*	*	*	*	*	*	*	*
2r	.	4.A\	.	1r	.	4.a\	2.ryy	.	4.cc\	.	4.ff\	.	4.A\	wie-	.	4.f 4.c\	wscho-	.	.	4.cc\	-sta-	.	4.ff\	-wiel-	.	2rc	2rEE	.	2r	.	2r	.	4.ff 4.cc\	.	4.A 4.AA\	.	4.cc/	4.cc\	.	4.ff/	4.cc\	.	4.ff/	.	4.fff\	.
.	.	8A\	.	.	.	8a\	.	.	8cc\	.	8ff\	.	8A\	-cznie	.	8f 8c\	-dzie	.	.	8cc\	-ci	.	8ff\	-biaj	.	.	.	.	.	.	.	.	8ff 8cc\	.	8A 8AA\	.	8cc/	8cc\	.	8ff/	8cc\	.	8ff/	.	8fff\	.
4r	.	4G\	.	.	.	4g\	.	.	4cc\	.	4ee\	.	4G\	wiel-	.	4e 4c\	i	.	.	4cc\	przy-	.	4ee\	Twe-	.	4rc	4rEE	.	4r	.	4r	.	4ee 4cc\	.	4G 4GG\	.	4cc/	4cc\	.	4ee/	4cc\	.	4ee/	.	4eee\	.
!LO:SIC:o=4Re\	!LO:DY:b:rj	!	!	!	!	!	!	!	!	!	!	!	!	!	!	!	!	!	!	!	!	!	!	!	!	!	!	!	!	!	!	!	!	!	!	!	!	!	!	!	!	!	!	!	!	!
4GG\	f	4F\	.	.	.	4g/	4f\	.	4b\	.	4dd\	.	4F\	-bion	.	4d 4B\	za-	.	.	4b\	-szedł	.	4dd\	-go	.	4G/	4F\	.	4B\	.	4d\	.	4dd 4g\	.	4F 4FF\	.	4dd 4g/	4ryy	.	4dd/	4b\	.	4dd/	.	4ddd\	.
*	*	*	*	*	*	*	*	*	*	*	*	*	*	*	*	*	*	*	*	*	*	*	*	*	*	*	*	*	*	*	*	*	*	*	*	*	*v	*v	*	*	*	*	*	*	*	*
*	*	*	*	*	*	*	*	*	*	*	*	*	*	*	*	*	*	*	*	*	*	*	*	*	*	*	*	*	*	*	*	*	*	*	*	*	*	*	*v	*v	*	*	*	*	*
=8	=8	=8	=8	=8	=8	=8	=8	=8	=8	=8	=8	=8	=8	=8	=8	=8	=8	=8	=8	=8	=8	=8	=8	=8	=8	=8	=8	=8	=8	=8	=8	=8	=8	=8	=8	=8	=8	=8	=8	=8	=8	=8	=8	=8
*	*	*	*	*	*	*	*	*	*	*	*	*	*	*	*	*	*	*	*	*	*	*	*	*	*	*	*	*	*	*	*	*	*^	*	*	*	*	*	*	*	*	*	*	*
*tremolo	*	*	*	*	*	*	*	*	*	*	*	*	*	*	*	*2\right	*	*	*	*	*	*	*	*	*	*	*	*	*	*	*	*	*	*2\right	*	*	*	*	*	*	*	*	*	*	*
!LO:SIC:o=32Re/LLL	!	!	!	!LO:TX:t=P:problem=odtąd do końca partia wiolonczeli zapisana odnośnikiem do kontrabasu	!	!	!	!	!	!	!	!	!	!	!	!	!	!	!	!	!	!	!	!	!	!	!	!	!	!	!	!	!	!	!	!	!	!	!	!	!	!	!	!	!
32C/LLL	.	32E\LLL	.	32E\LLL	.	32g/LLL	32e\LLL	.	32cc/LLL	.	32gg\LLL	.	2E\	bę-	.	2c\	-cho-	.	.	2cc\	chle-	.	2gg\	Pa-	.	2.G/	2.E\	.	2.c\	.	2.g\	.	2.cc/	2.cc\	.	2.E 2.EE/	.	2.cc 2.g/	.	2.gg 2.cc\	.	2.gg/	.	2.ggg\	.
!LO:SIC:o=32Re/	!	!	!	!	!	!	!	!	!	!	!	!	!	!	!	!	!	!	!	!	!	!	!	!	!	!	!	!	!	!	!	!	!	!	!	!	!	!	!	!	!	!	!	!	!
32C/	.	32E\	.	32E\	.	32g/	32e\	.	32cc/	.	32gg\	.	.	.	.	.	.	.	.	.	.	.	.	.	.	.	.	.	.	.	.	.	.	.	.	.	.	.	.	.	.	.	.	.	.
!LO:SIC:o=32Re/	!	!	!	!	!	!	!	!	!	!	!	!	!	!	!	!	!	!	!	!	!	!	!	!	!	!	!	!	!	!	!	!	!	!	!	!	!	!	!	!	!	!	!	!	!
32C/	.	32E\	.	32E\	.	32g/	32e\	.	32cc/	.	32gg\	.	.	.	.	.	.	.	.	.	.	.	.	.	.	.	.	.	.	.	.	.	.	.	.	.	.	.	.	.	.	.	.	.	.
!LO:SIC:o=32Re/	!	!	!	!	!	!	!	!	!	!	!	!	!	!	!	!	!	!	!	!	!	!	!	!	!	!	!	!	!	!	!	!	!	!	!	!	!	!	!	!	!	!	!	!	!
32C/	.	32E\	.	32E\	.	32g/	32e\	.	32cc/	.	32gg\	.	.	.	.	.	.	.	.	.	.	.	.	.	.	.	.	.	.	.	.	.	.	.	.	.	.	.	.	.	.	.	.	.	.
!LO:SIC:o=32Re/	!	!	!	!	!	!	!	!	!	!	!	!	!	!	!	!	!	!	!	!	!	!	!	!	!	!	!	!	!	!	!	!	!	!	!	!	!	!	!	!	!	!	!	!	!
32C/	.	32E\	.	32E\	.	32g/	32e\	.	32cc/	.	32gg\	.	.	.	.	.	.	.	.	.	.	.	.	.	.	.	.	.	.	.	.	.	.	.	.	.	.	.	.	.	.	.	.	.	.
!LO:SIC:o=32Re/	!	!	!	!	!	!	!	!	!	!	!	!	!	!	!	!	!	!	!	!	!	!	!	!	!	!	!	!	!	!	!	!	!	!	!	!	!	!	!	!	!	!	!	!	!
32C/	.	32E\	.	32E\	.	32g/	32e\	.	32cc/	.	32gg\	.	.	.	.	.	.	.	.	.	.	.	.	.	.	.	.	.	.	.	.	.	.	.	.	.	.	.	.	.	.	.	.	.	.
!LO:SIC:o=32Re/	!	!	!	!	!	!	!	!	!	!	!	!	!	!	!	!	!	!	!	!	!	!	!	!	!	!	!	!	!	!	!	!	!	!	!	!	!	!	!	!	!	!	!	!	!
32C/	.	32E\	.	32E\	.	32g/	32e\	.	32cc/	.	32gg\	.	.	.	.	.	.	.	.	.	.	.	.	.	.	.	.	.	.	.	.	.	.	.	.	.	.	.	.	.	.	.	.	.	.
!LO:SIC:o=32Re/	!	!	!	!	!	!	!	!	!	!	!	!	!	!	!	!	!	!	!	!	!	!	!	!	!	!	!	!	!	!	!	!	!	!	!	!	!	!	!	!	!	!	!	!	!
32C/	.	32E\	.	32E\	.	32g/	32e\	.	32cc/	.	32gg\	.	.	.	.	.	.	.	.	.	.	.	.	.	.	.	.	.	.	.	.	.	.	.	.	.	.	.	.	.	.	.	.	.	.
!LO:SIC:o=32Re/	!	!	!	!	!	!	!	!	!	!	!	!	!	!	!	!	!	!	!	!	!	!	!	!	!	!	!	!	!	!	!	!	!	!	!	!	!	!	!	!	!	!	!	!	!
32C/	.	32E\	.	32E\	.	32g/	32e\	.	32cc/	.	32gg\	.	.	.	.	.	.	.	.	.	.	.	.	.	.	.	.	.	.	.	.	.	.	.	.	.	.	.	.	.	.	.	.	.	.
!LO:SIC:o=32Re/	!	!	!	!	!	!	!	!	!	!	!	!	!	!	!	!	!	!	!	!	!	!	!	!	!	!	!	!	!	!	!	!	!	!	!	!	!	!	!	!	!	!	!	!	!
32C/	.	32E\	.	32E\	.	32g/	32e\	.	32cc/	.	32gg\	.	.	.	.	.	.	.	.	.	.	.	.	.	.	.	.	.	.	.	.	.	.	.	.	.	.	.	.	.	.	.	.	.	.
!LO:SIC:o=32Re/	!	!	!	!	!	!	!	!	!	!	!	!	!	!	!	!	!	!	!	!	!	!	!	!	!	!	!	!	!	!	!	!	!	!	!	!	!	!	!	!	!	!	!	!	!
32C/	.	32E\	.	32E\	.	32g/	32e\	.	32cc/	.	32gg\	.	.	.	.	.	.	.	.	.	.	.	.	.	.	.	.	.	.	.	.	.	.	.	.	.	.	.	.	.	.	.	.	.	.
!LO:SIC:o=32Re/	!	!	!	!	!	!	!	!	!	!	!	!	!	!	!	!	!	!	!	!	!	!	!	!	!	!	!	!	!	!	!	!	!	!	!	!	!	!	!	!	!	!	!	!	!
32C/	.	32E\	.	32E\	.	32g/	32e\	.	32cc/	.	32gg\	.	.	.	.	.	.	.	.	.	.	.	.	.	.	.	.	.	.	.	.	.	.	.	.	.	.	.	.	.	.	.	.	.	.
!LO:SIC:o=32Re/	!	!	!	!	!	!	!	!	!	!	!	!	!	!	!	!	!	!	!	!	!	!	!	!	!	!	!	!	!	!	!	!	!	!	!	!	!	!	!	!	!	!	!	!	!
32C/	.	32E\	.	32E\	.	32g/	32e\	.	32cc/	.	32gg\	.	.	.	.	.	.	.	.	.	.	.	.	.	.	.	.	.	.	.	.	.	.	.	.	.	.	.	.	.	.	.	.	.	.
!LO:SIC:o=32Re/	!	!	!	!	!	!	!	!	!	!	!	!	!	!	!	!	!	!	!	!	!	!	!	!	!	!	!	!	!	!	!	!	!	!	!	!	!	!	!	!	!	!	!	!	!
32C/	.	32E\	.	32E\	.	32g/	32e\	.	32cc/	.	32gg\	.	.	.	.	.	.	.	.	.	.	.	.	.	.	.	.	.	.	.	.	.	.	.	.	.	.	.	.	.	.	.	.	.	.
!LO:SIC:o=32Re/	!	!	!	!	!	!	!	!	!	!	!	!	!	!	!	!	!	!	!	!	!	!	!	!	!	!	!	!	!	!	!	!	!	!	!	!	!	!	!	!	!	!	!	!	!
32C/	.	32E\	.	32E\	.	32g/	32e\	.	32cc/	.	32gg\	.	.	.	.	.	.	.	.	.	.	.	.	.	.	.	.	.	.	.	.	.	.	.	.	.	.	.	.	.	.	.	.	.	.
!LO:SIC:o=32Re/JJJ	!	!	!	!	!	!	!	!	!	!	!	!	!	!	!	!	!	!	!	!	!	!	!	!	!	!	!	!	!	!	!	!	!	!	!	!	!	!	!	!	!	!	!	!	!
32C/JJJ	.	32E\JJJ	.	32E\JJJ	.	32g/JJJ	32e\JJJ	.	32cc/JJJ	.	32gg\JJJ	.	.	.	.	.	.	.	.	.	.	.	.	.	.	.	.	.	.	.	.	.	.	.	.	.	.	.	.	.	.	.	.	.	.
!LO:SIC:o=4Re/	!	!	!	!	!	!	!	!	!	!	!	!	!	!	!	!	!	!	!	!	!	!	!	!	!	!	!	!	!	!	!	!	!	!	!	!	!	!	!	!	!	!	!	!	!
4C/	.	4E\	.	4E\	.	4g/	4e\	.	4cc/	.	4gg\	.	4E\	-dzie.	.	4c\	-dzie	.	.	4cc\	-ba	.	4gg\	-na	.	.	.	.	.	.	.	.	.	.	.	.	.	.	.	.	.	.	.	.	.
4r	.	4r	.	4r	.	4r	4ryy	.	4r	.	4r	.	4r	.	.	4r	.	.	.	4r	.	.	4r	.	.	4ryy	4r	.	4r	.	4r	.	4ryy	4r	.	4r	.	4r	.	4r	.	4r	.	4r	.
!	!	!	!	!	!	!	!	!	!	!	!	!	!	!	!	!	!	!	!	!LO:CL:ed	!	!	!	!	!	!	!	!	!	!	!	!	!	!	!	!	!	!	!	!	!	!	!	!	!
*	*	*	*	*	*	*	*	*	*	*	*	*	*	*	*	*	*	*	*	*clefC3	*	*	*	*	*	*	*	*	*	*	*	*	*	*	*	*	*	*	*	*	*	*	*	*	*
*	*	*	*	*	*	*v	*v	*	*	*	*	*	*	*	*	*	*	*	*	*	*	*	*	*	*	*v	*v	*	*	*	*	*	*	*	*	*	*	*	*	*	*	*	*	*	*
!!LO:PB:g=original
*	*	*	*	*	*	*	*	*	*	*	*	*	*	*	*	*	*	*	*	*	*	*	*	*	*	*	*	*	*	*	*	*	*	*	*	*	*	*	*	*	*	*	*
=9	=9	=9	=9	=9	=9	=9	=9	=9	=9	=9	=9	=9	=9	=9	=9	=9	=9	=9	=9	=9	=9	=9	=9	=9	=9	=9	=9	=9	=9	=9	=9	=9	=9	=9	=9	=9	=9	=9	=9	=9	=9	=9	=9
*	*	*	*	*	*	*	*	*	*	*	*	*	*	*	*^	*	*	*	*	*	*	*	*	*	*	*	*	*	*	*	*	*	*	*	*	*^	*	*^	*	*	*	*	*
!	!	!	!	!	!	!	!	!	!LO:DY:rj	!	!LO:DY:rj	!	!	!LO:DY:rj	!	!	!	!	!LO:DY:rj	!	!	!	!	!	!LO:DY:rj	!	!	!	!LO:DY:rj	!	!LO:DY:rj	!	!	!	!	!	!	!	!LO:DY:rj	!	!	!LO:DY:rj	!	!	!LO:TX:a:t=P:problem=cała strona partytury wykreślona	!
1r	.	32D\LLL	f	32D\LLL	f	32ALLL 32D/	.	32aLLL 32d/	f	32ggLLL 32a\	f	2D\	.	f	2d/	2A\	Swię-	.	f	2a\	.	.	2gg\	Swię-	f	2.D\	.	2.A\	f	2.d\	f	2.dd/	(>2g\	.	2.A 2.D\	.	2.dd/	2.dd\	f	2gg/	2.a\	f	1r	.	1r	.
.	.	32D\	.	32D\	.	32A 32D/	.	32a 32d/	.	32gg 32a\	.	.	.	.	.	.	.	.	.	.	.	.	.	.	.	.	.	.	.	.	.	.	.	.	.	.	.	.	.	.	.	.	.	.	.	.
.	.	32D\	.	32D\	.	32A 32D/	.	32a 32d/	.	32gg 32a\	.	.	.	.	.	.	.	.	.	.	.	.	.	.	.	.	.	.	.	.	.	.	.	.	.	.	.	.	.	.	.	.	.	.	.	.
.	.	32D\	.	32D\	.	32A 32D/	.	32a 32d/	.	32gg 32a\	.	.	.	.	.	.	.	.	.	.	.	.	.	.	.	.	.	.	.	.	.	.	.	.	.	.	.	.	.	.	.	.	.	.	.	.
.	.	32D\	.	32D\	.	32A 32D/	.	32a 32d/	.	32gg 32a\	.	.	.	.	.	.	.	.	.	.	.	.	.	.	.	.	.	.	.	.	.	.	.	.	.	.	.	.	.	.	.	.	.	.	.	.
.	.	32D\	.	32D\	.	32A 32D/	.	32a 32d/	.	32gg 32a\	.	.	.	.	.	.	.	.	.	.	.	.	.	.	.	.	.	.	.	.	.	.	.	.	.	.	.	.	.	.	.	.	.	.	.	.
.	.	32D\	.	32D\	.	32A 32D/	.	32a 32d/	.	32gg 32a\	.	.	.	.	.	.	.	.	.	.	.	.	.	.	.	.	.	.	.	.	.	.	.	.	.	.	.	.	.	.	.	.	.	.	.	.
.	.	32D\	.	32D\	.	32A 32D/	.	32a 32d/	.	32gg 32a\	.	.	.	.	.	.	.	.	.	.	.	.	.	.	.	.	.	.	.	.	.	.	.	.	.	.	.	.	.	.	.	.	.	.	.	.
.	.	32D\	.	32D\	.	32A 32D/	.	32a 32d/	.	32gg 32a\	.	.	.	.	.	.	.	.	.	.	.	.	.	.	.	.	.	.	.	.	.	.	.	.	.	.	.	.	.	.	.	.	.	.	.	.
.	.	32D\	.	32D\	.	32A 32D/	.	32a 32d/	.	32gg 32a\	.	.	.	.	.	.	.	.	.	.	.	.	.	.	.	.	.	.	.	.	.	.	.	.	.	.	.	.	.	.	.	.	.	.	.	.
.	.	32D\	.	32D\	.	32A 32D/	.	32a 32d/	.	32gg 32a\	.	.	.	.	.	.	.	.	.	.	.	.	.	.	.	.	.	.	.	.	.	.	.	.	.	.	.	.	.	.	.	.	.	.	.	.
.	.	32D\	.	32D\	.	32A 32D/	.	32a 32d/	.	32gg 32a\	.	.	.	.	.	.	.	.	.	.	.	.	.	.	.	.	.	.	.	.	.	.	.	.	.	.	.	.	.	.	.	.	.	.	.	.
.	.	32D\	.	32D\	.	32A 32D/	.	32a 32d/	.	32gg 32a\	.	.	.	.	.	.	.	.	.	.	.	.	.	.	.	.	.	.	.	.	.	.	.	.	.	.	.	.	.	.	.	.	.	.	.	.
.	.	32D\	.	32D\	.	32A 32D/	.	32a 32d/	.	32gg 32a\	.	.	.	.	.	.	.	.	.	.	.	.	.	.	.	.	.	.	.	.	.	.	.	.	.	.	.	.	.	.	.	.	.	.	.	.
.	.	32D\	.	32D\	.	32A 32D/	.	32a 32d/	.	32gg 32a\	.	.	.	.	.	.	.	.	.	.	.	.	.	.	.	.	.	.	.	.	.	.	.	.	.	.	.	.	.	.	.	.	.	.	.	.
.	.	32D\JJJ	.	32D\JJJ	.	32AJJJ 32D/	.	32aJJJ 32d/	.	32ggJJJ 32a\	.	.	.	.	.	.	.	.	.	.	.	.	.	.	.	.	.	.	.	.	.	.	.	.	.	.	.	.	.	.	.	.	.	.	.	.
.	.	4D\	.	4D\	.	4A 4D/	.	4a 4d/	.	4ff 4a\	.	4D\	.	.	4d/	4A\	-ty.	.	.	4a\	.	.	4ff\	-ty!	.	.	.	.	.	.	.	.	4f\)	.	.	.	.	.	.	4ff/	.	.	.	.	.	.
!	!	!	!	!	!	!	!	!	!	!	!	!	!	!	!	!	!	!	!	!	!	!	!	!	!	!	!	!	!	!	!	!	!	!	!	!	!	!	!	!	!	!	!	!	!	!LO:DY:a
.	.	4r	.	4r	.	4r	.	4r	.	4r	.	4r	.	.	4rd	4r	.	.	.	4r	.	.	4r	.	.	4r	.	4r	.	4r	.	4rff	4rc	.	4r	.	4r	4rcyy	.	4rff	4rcyy	.	.	.	.	pp
*	*	*	*	*	*	*	*	*	*	*	*	*	*	*	*v	*v	*	*	*	*	*	*	*	*	*	*	*	*	*	*	*	*v	*v	*	*	*	*v	*v	*	*	*	*	*	*	*	*
=10	=10	=10	=10	=10	=10	=10	=10	=10	=10	=10	=10	=10	=10	=10	=10	=10	=10	=10	=10	=10	=10	=10	=10	=10	=10	=10	=10	=10	=10	=10	=10	=10	=10	=10	=10	=10	=10	=10	=10	=10	=10	=10	=10
!	!	!	!	!	!	!	!	!	!	!	!	!	!	!	!	!	!	!	!	!	!	!	!	!	!	!	!	!	!	!	!	!	!	!	!	!	!	!	!	!	!LO:DY:rj	!	!
1r	.	1r	.	1r	.	1r	.	1r	.	1r	.	1r	.	.	1r	.	.	.	1r	.	.	1r	.	.	1r	.	1r	.	1r	.	1r	.	1r	.	1r	.	2.dd/	1re	pp	2.aa\	pp	(2ggg\	.
.	.	.	.	.	.	.	.	.	.	.	.	.	.	.	.	.	.	.	.	.	.	.	.	.	.	.	.	.	.	.	.	.	.	.	.	.	.	.	.	.	.	4fff\)	.
.	.	.	.	.	.	.	.	.	.	.	.	.	.	.	.	.	.	.	.	.	.	.	.	.	.	.	.	.	.	.	.	.	.	.	.	.	4r	.	.	4r	.	4r	.
*	*	*	*	*	*	*	*	*	*	*	*	*	*	*	*	*	*	*	*	*	*	*	*	*	*	*	*	*	*	*	*	*	*	*	*	*	*v	*v	*	*	*	*	*
=11	=11	=11	=11	=11	=11	=11	=11	=11	=11	=11	=11	=11	=11	=11	=11	=11	=11	=11	=11	=11	=11	=11	=11	=11	=11	=11	=11	=11	=11	=11	=11	=11	=11	=11	=11	=11	=11	=11	=11	=11	=11	=11
*	*	*	*	*	*	*	*	*	*	*	*	*	*	*	*^	*	*	*	*	*	*	*^	*	*	*	*	*	*	*	*	*^	*	*	*	*	*	*	*	*	*	*	*
!LO:SIC:o=32Re\LLL	!LO:DY:b:rj	!	!	!	!	!	!	!	!LO:DY:rj	!	!LO:DY:rj	!	!	!LO:DY:rj	!	!	!	!	!LO:DY:rj	!	!	!LO:DY:rj	!	!	!	!LO:DY:rj	!	!	!	!LO:DY:rj	!	!LO:DY:rj	!	!	!LO:DY:rj	!	!	!	!LO:DY:rj	!	!	!	!	!	!
32GG\LLL	f	32G\LLL	f	32G\LLL	f	32gLLL 32G\	.	32bLLL 32d/	f	32dd\LLL	f	2G\	.	f	2d/	2B\	Swię-	.	f	2g\	.	f	2dd/	2b\	Swię-	f	2.G 2.GG\	.	2.B\	f	2.g\	f	2.dd/	2.b\	f	2.B 2.G\	.	2.dd 2.g/	f	1r	.	1r	.	1r	.
!LO:SIC:o=32Re\	!	!	!	!	!	!	!	!	!	!	!	!	!	!	!	!	!	!	!	!	!	!	!	!	!	!	!	!	!	!	!	!	!	!	!	!	!	!	!	!	!	!	!	!	!
32GG\	.	32G\	.	32G\	.	32g 32G\	.	32b 32d/	.	32dd\	.	.	.	.	.	.	.	.	.	.	.	.	.	.	.	.	.	.	.	.	.	.	.	.	.	.	.	.	.	.	.	.	.	.	.
!LO:SIC:o=32Re\	!	!	!	!	!	!	!	!	!	!	!	!	!	!	!	!	!	!	!	!	!	!	!	!	!	!	!	!	!	!	!	!	!	!	!	!	!	!	!	!	!	!	!	!	!
32GG\	.	32G\	.	32G\	.	32g 32G\	.	32b 32d/	.	32dd\	.	.	.	.	.	.	.	.	.	.	.	.	.	.	.	.	.	.	.	.	.	.	.	.	.	.	.	.	.	.	.	.	.	.	.
!LO:SIC:o=32Re\	!	!	!	!	!	!	!	!	!	!	!	!	!	!	!	!	!	!	!	!	!	!	!	!	!	!	!	!	!	!	!	!	!	!	!	!	!	!	!	!	!	!	!	!	!
32GG\	.	32G\	.	32G\	.	32g 32G\	.	32b 32d/	.	32dd\	.	.	.	.	.	.	.	.	.	.	.	.	.	.	.	.	.	.	.	.	.	.	.	.	.	.	.	.	.	.	.	.	.	.	.
!LO:SIC:o=32Re\	!	!	!	!	!	!	!	!	!	!	!	!	!	!	!	!	!	!	!	!	!	!	!	!	!	!	!	!	!	!	!	!	!	!	!	!	!	!	!	!	!	!	!	!	!
32GG\	.	32G\	.	32G\	.	32g 32G\	.	32b 32d/	.	32dd\	.	.	.	.	.	.	.	.	.	.	.	.	.	.	.	.	.	.	.	.	.	.	.	.	.	.	.	.	.	.	.	.	.	.	.
!LO:SIC:o=32Re\	!	!	!	!	!	!	!	!	!	!	!	!	!	!	!	!	!	!	!	!	!	!	!	!	!	!	!	!	!	!	!	!	!	!	!	!	!	!	!	!	!	!	!	!	!
32GG\	.	32G\	.	32G\	.	32g 32G\	.	32b 32d/	.	32dd\	.	.	.	.	.	.	.	.	.	.	.	.	.	.	.	.	.	.	.	.	.	.	.	.	.	.	.	.	.	.	.	.	.	.	.
!LO:SIC:o=32Re\	!	!	!	!	!	!	!	!	!	!	!	!	!	!	!	!	!	!	!	!	!	!	!	!	!	!	!	!	!	!	!	!	!	!	!	!	!	!	!	!	!	!	!	!	!
32GG\	.	32G\	.	32G\	.	32g 32G\	.	32b 32d/	.	32dd\	.	.	.	.	.	.	.	.	.	.	.	.	.	.	.	.	.	.	.	.	.	.	.	.	.	.	.	.	.	.	.	.	.	.	.
!LO:SIC:o=32Re\	!	!	!	!	!	!	!	!	!	!	!	!	!	!	!	!	!	!	!	!	!	!	!	!	!	!	!	!	!	!	!	!	!	!	!	!	!	!	!	!	!	!	!	!	!
32GG\	.	32G\	.	32G\	.	32g 32G\	.	32b 32d/	.	32dd\	.	.	.	.	.	.	.	.	.	.	.	.	.	.	.	.	.	.	.	.	.	.	.	.	.	.	.	.	.	.	.	.	.	.	.
!LO:SIC:o=32Re\	!	!	!	!	!	!	!	!	!	!	!	!	!	!	!	!	!	!	!	!	!	!	!	!	!	!	!	!	!	!	!	!	!	!	!	!	!	!	!	!	!	!	!	!	!
32GG\	.	32G\	.	32G\	.	32g 32G\	.	32b 32d/	.	32dd\	.	.	.	.	.	.	.	.	.	.	.	.	.	.	.	.	.	.	.	.	.	.	.	.	.	.	.	.	.	.	.	.	.	.	.
!LO:SIC:o=32Re\	!	!	!	!	!	!	!	!	!	!	!	!	!	!	!	!	!	!	!	!	!	!	!	!	!	!	!	!	!	!	!	!	!	!	!	!	!	!	!	!	!	!	!	!	!
32GG\	.	32G\	.	32G\	.	32g 32G\	.	32b 32d/	.	32dd\	.	.	.	.	.	.	.	.	.	.	.	.	.	.	.	.	.	.	.	.	.	.	.	.	.	.	.	.	.	.	.	.	.	.	.
!LO:SIC:o=32Re\	!	!	!	!	!	!	!	!	!	!	!	!	!	!	!	!	!	!	!	!	!	!	!	!	!	!	!	!	!	!	!	!	!	!	!	!	!	!	!	!	!	!	!	!	!
32GG\	.	32G\	.	32G\	.	32g 32G\	.	32b 32d/	.	32dd\	.	.	.	.	.	.	.	.	.	.	.	.	.	.	.	.	.	.	.	.	.	.	.	.	.	.	.	.	.	.	.	.	.	.	.
!LO:SIC:o=32Re\	!	!	!	!	!	!	!	!	!	!	!	!	!	!	!	!	!	!	!	!	!	!	!	!	!	!	!	!	!	!	!	!	!	!	!	!	!	!	!	!	!	!	!	!	!
32GG\	.	32G\	.	32G\	.	32g 32G\	.	32b 32d/	.	32dd\	.	.	.	.	.	.	.	.	.	.	.	.	.	.	.	.	.	.	.	.	.	.	.	.	.	.	.	.	.	.	.	.	.	.	.
!LO:SIC:o=32Re\	!	!	!	!	!	!	!	!	!	!	!	!	!	!	!	!	!	!	!	!	!	!	!	!	!	!	!	!	!	!	!	!	!	!	!	!	!	!	!	!	!	!	!	!	!
32GG\	.	32G\	.	32G\	.	32g 32G\	.	32b 32d/	.	32dd\	.	.	.	.	.	.	.	.	.	.	.	.	.	.	.	.	.	.	.	.	.	.	.	.	.	.	.	.	.	.	.	.	.	.	.
!LO:SIC:o=32Re\	!	!	!	!	!	!	!	!	!	!	!	!	!	!	!	!	!	!	!	!	!	!	!	!	!	!	!	!	!	!	!	!	!	!	!	!	!	!	!	!	!	!	!	!	!LO:DY:a
32GG\	.	32G\	.	32G\	.	32g 32G\	.	32b 32d/	.	32dd\	.	.	.	.	.	.	.	.	.	.	.	.	.	.	.	.	.	.	.	.	.	.	.	.	.	.	.	.	.	.	.	.	pp	.	pp
!LO:SIC:o=32Re\	!	!	!	!	!	!	!	!	!	!	!	!	!	!	!	!	!	!	!	!	!	!	!	!	!	!	!	!	!	!	!	!	!	!	!	!	!	!	!	!	!	!	!	!	!
32GG\	.	32G\	.	32G\	.	32g 32G\	.	32b 32d/	.	32dd\	.	.	.	.	.	.	.	.	.	.	.	.	.	.	.	.	.	.	.	.	.	.	.	.	.	.	.	.	.	.	.	.	.	.	.
!LO:SIC:o=32Re\JJJ	!	!	!	!	!	!	!	!	!	!	!	!	!	!	!	!	!	!	!	!	!	!	!	!	!	!	!	!	!	!	!	!	!	!	!	!	!	!	!	!	!	!	!	!	!
32GG\JJJ	.	32G\JJJ	.	32G\JJJ	.	32gJJJ 32G\	.	32bJJJ 32d/	.	32dd\JJJ	.	.	.	.	.	.	.	.	.	.	.	.	.	.	.	.	.	.	.	.	.	.	.	.	.	.	.	.	.	.	.	.	.	.	.
!LO:SIC:o=4Re\	!	!	!	!	!	!	!	!	!	!	!	!	!	!	!	!	!	!	!	!	!	!	!	!	!	!	!	!	!	!	!	!	!	!	!	!	!	!	!	!	!	!	!	!	!
4GG\	.	4G\	.	4G\	.	4g 4G\	.	4b 4d/	.	4dd\	.	4G\	.	.	4d/	4B\	-ty!	.	.	4g\	.	.	4dd/	4b\	-ty!	.	.	.	.	.	.	.	.	.	.	.	.	.	.	.	.	.	.	.	.
4r	.	4r	.	4r	.	4r	.	4r	.	4r	.	4r	.	.	4r	4ryy	.	.	.	4r	.	.	4r	4ryy	.	.	4r	.	4r	.	4r	.	4raa	4rcyy	.	4r	.	4r	.	.	pp	.	.	.	.
*	*	*	*	*	*	*	*	*	*	*	*	*	*	*	*v	*v	*	*	*	*	*	*	*v	*v	*	*	*	*	*	*	*	*	*v	*v	*	*	*	*	*	*	*	*	*	*	*
=12	=12	=12	=12	=12	=12	=12	=12	=12	=12	=12	=12	=12	=12	=12	=12	=12	=12	=12	=12	=12	=12	=12	=12	=12	=12	=12	=12	=12	=12	=12	=12	=12	=12	=12	=12	=12	=12	=12	=12	=12	=12	=12
*	*	*	*	*	*	*	*	*	*	*	*	*	*	*	*	*	*	*	*	*	*	*	*	*	*	*	*	*	*	*	*	*	*	*	*	*	*^	*	*	*	*	*
1r	.	1r	.	1r	.	1r	.	1r	.	1r	.	1r	.	.	1r	.	.	.	1r	.	.	1r	.	.	1r	.	1r	.	1r	.	1r	.	1r	.	1r	.	2.gg/	1re	.	2.bb\	.	2.ddd\	.
!	!	!	!	!	!	!	!	!	!	!	!	!	!	!	!	!	!	!	!	!	!	!	!	!	!	!	!	!	!	!	!	!	!	!	!	!	!	!	!	!	!	!LO:TX:t=P:problem=po takcie 13 jeden takt wykreślony	!
.	.	.	.	.	.	.	.	.	.	.	.	.	.	.	.	.	.	.	.	.	.	.	.	.	.	.	.	.	.	.	.	.	.	.	.	.	4r	.	.	4r	.	4r	.
!!LO:PB:g=original
=13	=13	=13	=13	=13	=13	=13	=13	=13	=13	=13	=13	=13	=13	=13	=13	=13	=13	=13	=13	=13	=13	=13	=13	=13	=13	=13	=13	=13	=13	=13	=13	=13	=13	=13	=13	=13	=13	=13	=13	=13	=13	=13	=13
!LO:TX:a:t=1. 2. 3.	!	!	!	!	!	!	!	!	!	!	!	!	!	!	!	!	!	!	!	!	!	!	!	!	!	!	!	!	!	!	!	!	!	!	!	!	!	!	!	!	!	!	!
*>B1	*>B1	*>B1	*>B1	*>B1	*>B1	*>B1	*>B1	*>B1	*>B1	*>B1	*>B1	*>B1	*>B1	*>B1	*>B1	*>B1	*>B1	*>B1	*>B1	*>B1	*>B1	*>B1	*>B1	*>B1	*>B1	*>B1	*>B1	*>B1	*>B1	*>B1	*>B1	*>B1	*>B1	*>B1	*>B1	*>B1	*>B1	*>B1	*>B1	*>B1	*>B1	*>B1	*>B1
*	*	*	*	*	*	*	*	*^	*	*	*	*^	*	*	*	*	*	*	*	*	*	*	*	*	*^	*	*^	*	*	*	*	*	*	*	*^	*	*	*	*	*	*	*	*
!LO:SIC:o=32Re/LLL	!LO:DY:b:rj	!	!	!	!	!	!	!	!	!	!	!	!	!	!	!	!	!	!	!	!	!	!	!	!	!	!	!	!	!	!	!	!	!	!	!LO:DY:rj	!	!	!	!	!LO:DY:rj	!	!	!LO:DY:a:rj	!	!	!	!LO:DY:rj
32C/LLL	f	32C/LLL	f	32C/LLL	f	32gLLL 32c\	.	32cc/LLL	2e/	.	32ee\LLL	.	(2G/	2C\	Swię-	.	1c	.	.	.	2g\	.	.	(2ee\	Swię-	.	(2G\	2C\	.	2e\	1c	.	(2e\	.	1cc 1c	f	2C 2CC/	.	(2ee/	1cc	f	(2gg/	2ee\	f	1ccc	.	(2eee\	f
!LO:SIC:o=32Re/	!	!	!	!	!	!	!	!	!	!	!	!	!	!	!	!	!	!	!	!	!	!	!	!	!	!	!	!	!	!	!	!	!	!	!	!	!	!	!	!	!	!	!	!	!	!	!	!
32C/	.	32C/	.	32C/	.	32g 32c\	.	32cc/	.	.	32ee\	.	.	.	.	.	.	.	.	.	.	.	.	.	.	.	.	.	.	.	.	.	.	.	.	.	.	.	.	.	.	.	.	.	.	.	.	.
!LO:SIC:o=32Re/	!	!	!	!	!	!	!	!	!	!	!	!	!	!	!	!	!	!	!	!	!	!	!	!	!	!	!	!	!	!	!	!	!	!	!	!	!	!	!	!	!	!	!	!	!	!	!	!
32C/	.	32C/	.	32C/	.	32g 32c\	.	32cc/	.	.	32ee\	.	.	.	.	.	.	.	.	.	.	.	.	.	.	.	.	.	.	.	.	.	.	.	.	.	.	.	.	.	.	.	.	.	.	.	.	.
!LO:SIC:o=32Re/	!	!	!	!	!	!	!	!	!	!	!	!	!	!	!	!	!	!	!	!	!	!	!	!	!	!	!	!	!	!	!	!	!	!	!	!	!	!	!	!	!	!	!	!	!	!	!	!
32C/	.	32C/	.	32C/	.	32g 32c\	.	32cc/	.	.	32ee\	.	.	.	.	.	.	.	.	.	.	.	.	.	.	.	.	.	.	.	.	.	.	.	.	.	.	.	.	.	.	.	.	.	.	.	.	.
!LO:SIC:o=32Re/	!	!	!	!	!	!	!	!	!	!	!	!	!	!	!	!	!	!	!	!	!	!	!	!	!	!	!	!	!	!	!	!	!	!	!	!	!	!	!	!	!	!	!	!	!	!	!	!
32C/	.	32C/	.	32C/	.	32g 32c\	.	32cc/	.	.	32ee\	.	.	.	.	.	.	.	.	.	.	.	.	.	.	.	.	.	.	.	.	.	.	.	.	.	.	.	.	.	.	.	.	.	.	.	.	.
!LO:SIC:o=32Re/	!	!	!	!	!	!	!	!	!	!	!	!	!	!	!	!	!	!	!	!	!	!	!	!	!	!	!	!	!	!	!	!	!	!	!	!	!	!	!	!	!	!	!	!	!	!	!	!
32C/	.	32C/	.	32C/	.	32g 32c\	.	32cc/	.	.	32ee\	.	.	.	.	.	.	.	.	.	.	.	.	.	.	.	.	.	.	.	.	.	.	.	.	.	.	.	.	.	.	.	.	.	.	.	.	.
!LO:SIC:o=32Re/	!	!	!	!	!	!	!	!	!	!	!	!	!	!	!	!	!	!	!	!	!	!	!	!	!	!	!	!	!	!	!	!	!	!	!	!	!	!	!	!	!	!	!	!	!	!	!	!
32C/	.	32C/	.	32C/	.	32g 32c\	.	32cc/	.	.	32ee\	.	.	.	.	.	.	.	.	.	.	.	.	.	.	.	.	.	.	.	.	.	.	.	.	.	.	.	.	.	.	.	.	.	.	.	.	.
!LO:SIC:o=32Re/	!	!	!	!	!	!	!	!	!	!	!	!	!	!	!	!	!	!	!	!	!	!	!	!	!	!	!	!	!	!	!	!	!	!	!	!	!	!	!	!	!	!	!	!	!	!	!	!
32C/	.	32C/	.	32C/	.	32g 32c\	.	32cc/	.	.	32ee\	.	.	.	.	.	.	.	.	.	.	.	.	.	.	.	.	.	.	.	.	.	.	.	.	.	.	.	.	.	.	.	.	.	.	.	.	.
!LO:SIC:o=32Re/	!	!	!	!	!	!	!	!	!	!	!	!	!	!	!	!	!	!	!	!	!	!	!	!	!	!	!	!	!	!	!	!	!	!	!	!	!	!	!	!	!	!	!	!	!	!	!	!
32C/	.	32C/	.	32C/	.	32g 32c\	.	32cc/	.	.	32ee\	.	.	.	.	.	.	.	.	.	.	.	.	.	.	.	.	.	.	.	.	.	.	.	.	.	.	.	.	.	.	.	.	.	.	.	.	.
!LO:SIC:o=32Re/	!	!	!	!	!	!	!	!	!	!	!	!	!	!	!	!	!	!	!	!	!	!	!	!	!	!	!	!	!	!	!	!	!	!	!	!	!	!	!	!	!	!	!	!	!	!	!	!
32C/	.	32C/	.	32C/	.	32g 32c\	.	32cc/	.	.	32ee\	.	.	.	.	.	.	.	.	.	.	.	.	.	.	.	.	.	.	.	.	.	.	.	.	.	.	.	.	.	.	.	.	.	.	.	.	.
!LO:SIC:o=32Re/	!	!	!	!	!	!	!	!	!	!	!	!	!	!	!	!	!	!	!	!	!	!	!	!	!	!	!	!	!	!	!	!	!	!	!	!	!	!	!	!	!	!	!	!	!	!	!	!
32C/	.	32C/	.	32C/	.	32g 32c\	.	32cc/	.	.	32ee\	.	.	.	.	.	.	.	.	.	.	.	.	.	.	.	.	.	.	.	.	.	.	.	.	.	.	.	.	.	.	.	.	.	.	.	.	.
!LO:SIC:o=32Re/	!	!	!	!	!	!	!	!	!	!	!	!	!	!	!	!	!	!	!	!	!	!	!	!	!	!	!	!	!	!	!	!	!	!	!	!	!	!	!	!	!	!	!	!	!	!	!	!
32C/	.	32C/	.	32C/	.	32g 32c\	.	32cc/	.	.	32ee\	.	.	.	.	.	.	.	.	.	.	.	.	.	.	.	.	.	.	.	.	.	.	.	.	.	.	.	.	.	.	.	.	.	.	.	.	.
!LO:SIC:o=32Re/	!	!	!	!	!	!	!	!	!	!	!	!	!	!	!	!	!	!	!	!	!	!	!	!	!	!	!	!	!	!	!	!	!	!	!	!	!	!	!	!	!	!	!	!	!	!	!	!
32C/	.	32C/	.	32C/	.	32g 32c\	.	32cc/	.	.	32ee\	.	.	.	.	.	.	.	.	.	.	.	.	.	.	.	.	.	.	.	.	.	.	.	.	.	.	.	.	.	.	.	.	.	.	.	.	.
!LO:SIC:o=32Re/	!	!	!	!	!	!	!	!	!	!	!	!	!	!	!	!	!	!	!	!	!	!	!	!	!	!	!	!	!	!	!	!	!	!	!	!	!	!	!	!	!	!	!	!	!	!	!	!
32C/	.	32C/	.	32C/	.	32g 32c\	.	32cc/	.	.	32ee\	.	.	.	.	.	.	.	.	.	.	.	.	.	.	.	.	.	.	.	.	.	.	.	.	.	.	.	.	.	.	.	.	.	.	.	.	.
!LO:SIC:o=32Re/	!	!	!	!	!	!	!	!	!	!	!	!	!	!	!	!	!	!	!	!	!	!	!	!	!	!	!	!	!	!	!	!	!	!	!	!	!	!	!	!	!	!	!	!	!	!	!	!
32C/	.	32C/	.	32C/	.	32g 32c\	.	32cc/	.	.	32ee\	.	.	.	.	.	.	.	.	.	.	.	.	.	.	.	.	.	.	.	.	.	.	.	.	.	.	.	.	.	.	.	.	.	.	.	.	.
!LO:SIC:o=32Re/	!	!	!	!	!	!	!	!	!	!	!	!	!	!	!	!	!	!	!	!	!	!	!	!	!	!	!	!	!	!	!	!	!	!	!	!	!	!	!	!	!	!	!	!	!	!	!	!
32C/	.	32C/JJJ	.	32C/JJJ	.	32gJJJ 32c\	.	32cc/	.	.	32ee\JJJ	.	.	.	.	.	.	.	.	.	.	.	.	.	.	.	.	.	.	.	.	.	.	.	.	.	.	.	.	.	.	.	.	.	.	.	.	.
!LO:SIC:o=32Re/	!	!	!	!	!	!	!	!	!	!	!	!	!	!	!	!	!	!	!	!	!	!	!	!	!	!	!	!	!	!	!	!	!	!	!	!	!	!	!	!	!	!	!	!	!	!	!	!
32C/	.	32F#X\LLL	.	32F#X\LLL	.	32aLLL 32f#X\	.	32cc/	2e-X/	.	32ee-X\LLL	.	2A/)	2F#X\	.	.	.	.	.	.	2a\	.	.	2ee-X\)	.	.	2A/)	2F#X\	.	2f\	.	.	2e-X\)	.	.	.	2F#X 2FF#X/	.	2ee-X/)	.	.	2aa/)	2ee-X\	.	.	.	2eee-X\	.
!LO:SIC:o=32Re/	!	!	!	!	!	!	!	!	!	!	!	!	!	!	!	!	!	!	!	!	!	!	!	!	!	!	!	!	!	!	!	!	!	!	!	!	!	!	!	!	!	!	!	!	!	!	!	!
32C/	.	32F#\	.	32F#\	.	32a 32f#\	.	32cc/	.	.	32ee-\	.	.	.	.	.	.	.	.	.	.	.	.	.	.	.	.	.	.	.	.	.	.	.	.	.	.	.	.	.	.	.	.	.	.	.	.	.
!LO:SIC:o=32Re/	!	!	!	!	!	!	!	!	!	!	!	!	!	!	!	!	!	!	!	!	!	!	!	!	!	!	!	!	!	!	!	!	!	!	!	!	!	!	!	!	!	!	!	!	!	!	!	!
32C/	.	32F#\	.	32F#\	.	32a 32f#\	.	32cc/	.	.	32ee-\	.	.	.	.	.	.	.	.	.	.	.	.	.	.	.	.	.	.	.	.	.	.	.	.	.	.	.	.	.	.	.	.	.	.	.	.	.
!LO:SIC:o=32Re/	!	!	!	!	!	!	!	!	!	!	!	!	!	!	!	!	!	!	!	!	!	!	!	!	!	!	!	!	!	!	!	!	!	!	!	!	!	!	!	!	!	!	!	!	!	!	!	!
32C/	.	32F#\	.	32F#\	.	32a 32f#\	.	32cc/	.	.	32ee-\	.	.	.	.	.	.	.	.	.	.	.	.	.	.	.	.	.	.	.	.	.	.	.	.	.	.	.	.	.	.	.	.	.	.	.	.	.
!LO:SIC:o=32Re/	!	!	!	!	!	!	!	!	!	!	!	!	!	!	!	!	!	!	!	!	!	!	!	!	!	!	!	!	!	!	!	!	!	!	!	!	!	!	!	!	!	!	!	!	!	!	!	!
32C/	.	32F#\	.	32F#\	.	32a 32f#\	.	32cc/	.	.	32ee-\	.	.	.	.	.	.	.	.	.	.	.	.	.	.	.	.	.	.	.	.	.	.	.	.	.	.	.	.	.	.	.	.	.	.	.	.	.
!LO:SIC:o=32Re/	!	!	!	!	!	!	!	!	!	!	!	!	!	!	!	!	!	!	!	!	!	!	!	!	!	!	!	!	!	!	!	!	!	!	!	!	!	!	!	!	!	!	!	!	!	!	!	!
32C/	.	32F#\	.	32F#\	.	32a 32f#\	.	32cc/	.	.	32ee-\	.	.	.	.	.	.	.	.	.	.	.	.	.	.	.	.	.	.	.	.	.	.	.	.	.	.	.	.	.	.	.	.	.	.	.	.	.
!LO:SIC:o=32Re/	!	!	!	!	!	!	!	!	!	!	!	!	!	!	!	!	!	!	!	!	!	!	!	!	!	!	!	!	!	!	!	!	!	!	!	!	!	!	!	!	!	!	!	!	!	!	!	!
32C/	.	32F#\	.	32F#\	.	32a 32f#\	.	32cc/	.	.	32ee-\	.	.	.	.	.	.	.	.	.	.	.	.	.	.	.	.	.	.	.	.	.	.	.	.	.	.	.	.	.	.	.	.	.	.	.	.	.
!LO:SIC:o=32Re/	!	!	!	!	!	!	!	!	!	!	!	!	!	!	!	!	!	!	!	!	!	!	!	!	!	!	!	!	!	!	!	!	!	!	!	!	!	!	!	!	!	!	!	!	!	!	!	!
32C/	.	32F#\	.	32F#\	.	32a 32f#\	.	32cc/	.	.	32ee-\	.	.	.	.	.	.	.	.	.	.	.	.	.	.	.	.	.	.	.	.	.	.	.	.	.	.	.	.	.	.	.	.	.	.	.	.	.
!LO:SIC:o=32Re/	!	!	!	!	!	!	!	!	!	!	!	!	!	!	!	!	!	!	!	!	!	!	!	!	!	!	!	!	!	!	!	!	!	!	!	!	!	!	!	!	!	!	!	!	!	!	!	!
32C/	.	32F#\	.	32F#\	.	32a 32f#\	.	32cc/	.	.	32ee-\	.	.	.	.	.	.	.	.	.	.	.	.	.	.	.	.	.	.	.	.	.	.	.	.	.	.	.	.	.	.	.	.	.	.	.	.	.
!LO:SIC:o=32Re/	!	!	!	!	!	!	!	!	!	!	!	!	!	!	!	!	!	!	!	!	!	!	!	!	!	!	!	!	!	!	!	!	!	!	!	!	!	!	!	!	!	!	!	!	!	!	!	!
32C/	.	32F#\	.	32F#\	.	32a 32f#\	.	32cc/	.	.	32ee-\	.	.	.	.	.	.	.	.	.	.	.	.	.	.	.	.	.	.	.	.	.	.	.	.	.	.	.	.	.	.	.	.	.	.	.	.	.
!LO:SIC:o=32Re/	!	!	!	!	!	!	!	!	!	!	!	!	!	!	!	!	!	!	!	!	!	!	!	!	!	!	!	!	!	!	!	!	!	!	!	!	!	!	!	!	!	!	!	!	!	!	!	!
32C/	.	32F#\	.	32F#\	.	32a 32f#\	.	32cc/	.	.	32ee-\	.	.	.	.	.	.	.	.	.	.	.	.	.	.	.	.	.	.	.	.	.	.	.	.	.	.	.	.	.	.	.	.	.	.	.	.	.
!LO:SIC:o=32Re/	!	!	!	!	!	!	!	!	!	!	!	!	!	!	!	!	!	!	!	!	!	!	!	!	!	!	!	!	!	!	!	!	!	!	!	!	!	!	!	!	!	!	!	!	!	!	!	!
32C/	.	32F#\	.	32F#\	.	32a 32f#\	.	32cc/	.	.	32ee-\	.	.	.	.	.	.	.	.	.	.	.	.	.	.	.	.	.	.	.	.	.	.	.	.	.	.	.	.	.	.	.	.	.	.	.	.	.
!LO:SIC:o=32Re/	!	!	!	!	!	!	!	!	!	!	!	!	!	!	!	!	!	!	!	!	!	!	!	!	!	!	!	!	!	!	!	!	!	!	!	!	!	!	!	!	!	!	!	!	!	!	!	!
32C/	.	32F#\	.	32F#\	.	32a 32f#\	.	32cc/	.	.	32ee-\	.	.	.	.	.	.	.	.	.	.	.	.	.	.	.	.	.	.	.	.	.	.	.	.	.	.	.	.	.	.	.	.	.	.	.	.	.
!LO:SIC:o=32Re/	!	!	!	!	!	!	!	!	!	!	!	!	!	!	!	!	!	!	!	!	!	!	!	!	!	!	!	!	!	!	!	!	!	!	!	!	!	!	!	!	!	!	!	!	!	!	!	!
32C/	.	32F#\	.	32F#\	.	32a 32f#\	.	32cc/	.	.	32ee-\	.	.	.	.	.	.	.	.	.	.	.	.	.	.	.	.	.	.	.	.	.	.	.	.	.	.	.	.	.	.	.	.	.	.	.	.	.
!LO:SIC:o=32Re/	!	!	!	!	!	!	!	!	!	!	!	!	!	!	!	!	!	!	!	!	!	!	!	!	!	!	!	!	!	!	!	!	!	!	!	!	!	!	!	!	!	!	!	!	!	!	!	!
32C/	.	32F#\	.	32F#\	.	32a 32f#\	.	32cc/	.	.	32ee-\	.	.	.	.	.	.	.	.	.	.	.	.	.	.	.	.	.	.	.	.	.	.	.	.	.	.	.	.	.	.	.	.	.	.	.	.	.
!LO:SIC:o=32Re/JJJ	!	!	!	!	!	!	!	!	!	!	!	!	!	!	!	!	!	!	!	!	!	!	!	!	!	!	!	!	!	!	!	!	!	!	!	!	!	!	!	!	!	!	!	!	!	!	!	!
32C/JJJ	.	32F#\JJJ	.	32F#\JJJ	.	32aJJJ 32f#\	.	32cc/JJJ	.	.	32ee-\JJJ	.	.	.	.	.	.	.	.	.	.	.	.	.	.	.	.	.	.	.	.	.	.	.	.	.	.	.	.	.	.	.	.	.	.	.	.	.
*	*	*	*	*	*	*	*	*	*	*	*	*	*	*	*	*	*	*	*	*	*	*	*	*	*	*	*v	*v	*	*	*	*	*	*	*	*	*	*	*v	*v	*	*	*	*	*	*	*	*
*	*	*	*	*	*	*	*	*v	*v	*	*	*	*	*	*	*	*	*	*	*	*	*	*	*	*	*	*	*	*v	*v	*	*	*	*	*	*	*	*	*	*	*	*	*	*	*	*
=14	=14	=14	=14	=14	=14	=14	=14	=14	=14	=14	=14	=14	=14	=14	=14	=14	=14	=14	=14	=14	=14	=14	=14	=14	=14	=14	=14	=14	=14	=14	=14	=14	=14	=14	=14	=14	=14	=14	=14	=14	=14	=14	=14	=14
!LO:SIC:o=4Re\	!	!	!	!	!	!	!	!	!	!	!	!	!	!	!	!	!	!	!	!	!	!	!	!	!	!	!	!	!	!	!	!	!	!	!	!	!	!	!	!	!	!	!	!
4GG\	.	4G\	.	4G\	.	4b 4g\	.	4b 4d/	.	4dd\	.	4G/	4G\	-ty	.	4B\	.	.	.	4b\	.	.	4dd\	-ty!	.	4G\	.	4B\	.	4d\	.	4g 4G/	.	4G 4GG/	.	4dd 4g/	.	4bb 4gg/	4dd\	.	4bb\	.	4ddd\)	.
!LO:SIC:o=8.Re\L	!	!	!	!	!	!	!	!	!	!	!	!	!	!	!	!	!	!	!	!	!	!	!	!	!	!	!	!	!	!	!	!	!	!	!	!	!	!	!	!	!	!	!	!
8.GG\L	.	4r	.	4r	.	4r	.	4r	.	4r	.	4rc	4rEEyy	.	.	4r	.	.	.	4r	.	.	4r	.	.	8.GL 8.GG/	.	8.G/L	.	8.g\L	.	8.gL 8.G/	.	8.GL 8.GG/	.	8.g/L	.	4r	4rcyy	.	4r	.	4r	.
!LO:SIC:o=16Re\Jk	!	!	!	!	!	!	!	!	!	!	!	!	!	!	!	!	!	!	!	!	!	!	!	!	!	!	!	!	!	!	!	!	!	!	!	!	!	!	!	!	!	!	!	!
16GG\Jk	.	.	.	.	.	.	.	.	.	.	.	.	.	.	.	.	.	.	.	.	.	.	.	.	.	16GJk 16GG/	.	16G/Jk	.	16g\Jk	.	16gJk 16G/	.	16GJk 16GG/	.	16g/Jk	.	.	.	.	.	.	.	.
!LO:SIC:o=4Re\	!	!	!	!	!	!	!	!	!	!	!	!	!	!	!	!	!	!	!	!	!	!	!	!	!	!	!	!	!	!	!	!	!	!	!	!	!	!LO:N:vis=2	!	!	!LO:N:vis=2	!	!LO:N:vis=2	!
4GG\	.	4r	.	4r	.	4r	.	4r	.	4r	.	4rc	4rEEyy	.	.	4r	.	.	.	4r	.	.	4r	.	.	4G 4GG/	.	4G/	.	4g\	.	4g 4G/	.	4G 4GG/	.	4g/	.	4r	4rcyy	.	4r	.	4r	.
*	*	*	*	*	*	*	*	*	*	*	*	*v	*v	*	*	*	*	*	*	*	*	*	*	*	*	*	*	*	*	*	*	*	*	*	*	*	*	*v	*v	*	*	*	*	*
=15:|!	=15:|!	=15:|!	=15:|!	=15:|!	=15:|!	=15:|!	=15:|!	=15:|!	=15:|!	=15:|!	=15:|!	=15:|!	=15:|!	=15:|!	=15:|!	=15:|!	=15:|!	=15:|!	=15:|!	=15:|!	=15:|!	=15:|!	=15:|!	=15:|!	=15:|!	=15:|!	=15:|!	=15:|!	=15:|!	=15:|!	=15:|!	=15:|!	=15:|!	=15:|!	=15:|!	=15:|!	=15:|!	=15:|!	=15:|!	=15:|!	=15:|!	=15:|!
!LO:TX:a:t=4.	!	!	!	!	!	!	!	!	!	!	!	!	!	!	!	!	!	!	!	!	!	!	!	!	!	!	!	!	!	!	!	!	!	!	!	!	!	!	!	!	!	!
*>B2	*>B2	*>B2	*>B2	*>B2	*>B2	*>B2	*>B2	*>B2	*>B2	*>B2	*>B2	*>B2	*>B2	*>B2	*>B2	*>B2	*>B2	*>B2	*>B2	*>B2	*>B2	*>B2	*>B2	*>B2	*>B2	*>B2	*>B2	*>B2	*>B2	*>B2	*>B2	*>B2	*>B2	*>B2	*>B2	*>B2	*>B2	*>B2	*>B2	*>B2	*>B2	*>B2
*	*	*	*	*	*	*	*	*	*	*	*	*	*	*	*	*	*	*	*	*	*	*^	*	*	*	*	*	*	*	*	*	*	*	*	*^	*	*	*	*	*	*	*
!LO:SIC:o=32Re/LLL	!LO:DY:b:rj	!	!	!	!	!	!LO:DY:rj	!	!	!	!LO:DY:b:rj	!	!	!LO:DY:rj	!	!	!	!LO:DY:rj	!	!	!	!	!	!	!LO:DY:b:rj	!	!LO:DY:rj	!	!LO:DY:rj	!	!LO:DY:rj	!	!LO:DY:rj	!	!	!	!	!	!	!LO:DY:a:rj	!	!	!	!
32C/LLL	ff	4C\	.	4C\	.	32gLLL 32c\	ff	32ccLLL 32e/	.	32eeLLL 32cc\	ff	1C	Swię-	f	1e 1c	.	.	f	1g	.	.	1ee	1cc	Swię-	f	4C/	f	1c	f	1e	f	1cc 1c	f	4c 4C\	.	1ee	1g	.	[1gg [>1ee	f	1ccc	.	1eee	f
!LO:SIC:o=32Re/	!	!	!	!	!	!	!	!	!	!	!	!	!	!	!	!	!	!	!	!	!	!	!	!	!	!	!	!	!	!	!	!	!	!	!	!	!	!	!	!	!	!	!	!
32C/	.	.	.	.	.	32g 32c\	.	32cc 32e/	.	32ee 32cc\	.	.	.	.	.	.	.	.	.	.	.	.	.	.	.	.	.	.	.	.	.	.	.	.	.	.	.	.	.	.	.	.	.	.
!LO:SIC:o=32Re/	!	!	!	!	!	!	!	!	!	!	!	!	!	!	!	!	!	!	!	!	!	!	!	!	!	!	!	!	!	!	!	!	!	!	!	!	!	!	!	!	!	!	!	!
32C/	.	.	.	.	.	32g 32c\	.	32cc 32e/	.	32ee 32cc\	.	.	.	.	.	.	.	.	.	.	.	.	.	.	.	.	.	.	.	.	.	.	.	.	.	.	.	.	.	.	.	.	.	.
!LO:SIC:o=32Re/	!	!	!	!	!	!	!	!	!	!	!	!	!	!	!	!	!	!	!	!	!	!	!	!	!	!	!	!	!	!	!	!	!	!	!	!	!	!	!	!	!	!	!	!
32C/	.	.	.	.	.	32g 32c\	.	32cc 32e/	.	32ee 32cc\	.	.	.	.	.	.	.	.	.	.	.	.	.	.	.	.	.	.	.	.	.	.	.	.	.	.	.	.	.	.	.	.	.	.
!LO:SIC:o=32Re/	!	!	!	!	!	!	!	!	!	!	!	!	!	!	!	!	!	!	!	!	!	!	!	!	!	!	!	!	!	!	!	!	!	!	!	!	!	!	!	!	!	!	!	!
32C/	.	.	.	.	.	32g 32c\	.	32cc 32e/	.	32ee 32cc\	.	.	.	.	.	.	.	.	.	.	.	.	.	.	.	.	.	.	.	.	.	.	.	.	.	.	.	.	.	.	.	.	.	.
!LO:SIC:o=32Re/	!	!	!	!	!	!	!	!	!	!	!	!	!	!	!	!	!	!	!	!	!	!	!	!	!	!	!	!	!	!	!	!	!	!	!	!	!	!	!	!	!	!	!	!
32C/	.	.	.	.	.	32g 32c\	.	32cc 32e/	.	32ee 32cc\	.	.	.	.	.	.	.	.	.	.	.	.	.	.	.	.	.	.	.	.	.	.	.	.	.	.	.	.	.	.	.	.	.	.
!LO:SIC:o=32Re/	!	!	!	!	!	!	!	!	!	!	!	!	!	!	!	!	!	!	!	!	!	!	!	!	!	!	!	!	!	!	!	!	!	!	!	!	!	!	!	!	!	!	!	!
32C/	.	.	.	.	.	32g 32c\	.	32cc 32e/	.	32ee 32cc\	.	.	.	.	.	.	.	.	.	.	.	.	.	.	.	.	.	.	.	.	.	.	.	.	.	.	.	.	.	.	.	.	.	.
!LO:SIC:o=32Re/	!	!	!	!	!	!	!	!	!	!	!	!	!	!	!	!	!	!	!	!	!	!	!	!	!	!	!	!	!	!	!	!	!	!	!	!	!	!	!	!	!	!	!	!
32C/	.	.	.	.	.	32g 32c\	.	32cc 32e/	.	32ee 32cc\	.	.	.	.	.	.	.	.	.	.	.	.	.	.	.	.	.	.	.	.	.	.	.	.	.	.	.	.	.	.	.	.	.	.
!LO:SIC:o=32Re/	!	!	!	!	!	!	!	!	!	!	!	!	!	!	!	!	!	!	!	!	!	!	!	!	!	!	!	!	!	!	!	!	!	!	!	!	!	!	!	!	!	!	!	!
32C/	.	4c\	.	4c\	.	32g 32c\	.	32cc 32e/	.	32ee 32cc\	.	.	.	.	.	.	.	.	.	.	.	.	.	.	.	4c 4C\	.	.	.	.	.	.	.	4c 4C\	.	.	.	.	.	.	.	.	.	.
!LO:SIC:o=32Re/	!	!	!	!	!	!	!	!	!	!	!	!	!	!	!	!	!	!	!	!	!	!	!	!	!	!	!	!	!	!	!	!	!	!	!	!	!	!	!	!	!	!	!	!
32C/	.	.	.	.	.	32g 32c\	.	32cc 32e/	.	32ee 32cc\	.	.	.	.	.	.	.	.	.	.	.	.	.	.	.	.	.	.	.	.	.	.	.	.	.	.	.	.	.	.	.	.	.	.
!LO:SIC:o=32Re/	!	!	!	!	!	!	!	!	!	!	!	!	!	!	!	!	!	!	!	!	!	!	!	!	!	!	!	!	!	!	!	!	!	!	!	!	!	!	!	!	!	!	!	!
32C/	.	.	.	.	.	32g 32c\	.	32cc 32e/	.	32ee 32cc\	.	.	.	.	.	.	.	.	.	.	.	.	.	.	.	.	.	.	.	.	.	.	.	.	.	.	.	.	.	.	.	.	.	.
!LO:SIC:o=32Re/	!	!	!	!	!	!	!	!	!	!	!	!	!	!	!	!	!	!	!	!	!	!	!	!	!	!	!	!	!	!	!	!	!	!	!	!	!	!	!	!	!	!	!	!
32C/	.	.	.	.	.	32g 32c\	.	32cc 32e/	.	32ee 32cc\	.	.	.	.	.	.	.	.	.	.	.	.	.	.	.	.	.	.	.	.	.	.	.	.	.	.	.	.	.	.	.	.	.	.
!LO:SIC:o=32Re/	!	!	!	!	!	!	!	!	!	!	!	!	!	!	!	!	!	!	!	!	!	!	!	!	!	!	!	!	!	!	!	!	!	!	!	!	!	!	!	!	!	!	!	!
32C/	.	.	.	.	.	32g 32c\	.	32cc 32e/	.	32ee 32cc\	.	.	.	.	.	.	.	.	.	.	.	.	.	.	.	.	.	.	.	.	.	.	.	.	.	.	.	.	.	.	.	.	.	.
!LO:SIC:o=32Re/	!	!	!	!	!	!	!	!	!	!	!	!	!	!	!	!	!	!	!	!	!	!	!	!	!	!	!	!	!	!	!	!	!	!	!	!	!	!	!	!	!	!	!	!
32C/	.	.	.	.	.	32g 32c\	.	32cc 32e/	.	32ee 32cc\	.	.	.	.	.	.	.	.	.	.	.	.	.	.	.	.	.	.	.	.	.	.	.	.	.	.	.	.	.	.	.	.	.	.
!LO:SIC:o=32Re/	!	!	!	!	!	!	!	!	!	!	!	!	!	!	!	!	!	!	!	!	!	!	!	!	!	!	!	!	!	!	!	!	!	!	!	!	!	!	!	!	!	!	!	!
32C/	.	.	.	.	.	32g 32c\	.	32cc 32e/	.	32ee 32cc\	.	.	.	.	.	.	.	.	.	.	.	.	.	.	.	.	.	.	.	.	.	.	.	.	.	.	.	.	.	.	.	.	.	.
!LO:SIC:o=32Re/	!	!	!	!	!	!	!	!	!	!	!	!	!	!	!	!	!	!	!	!	!	!	!	!	!	!	!	!	!	!	!	!	!	!	!	!	!	!	!	!	!	!	!	!
32C/	.	.	.	.	.	32g 32c\	.	32cc 32e/	.	32ee 32cc\	.	.	.	.	.	.	.	.	.	.	.	.	.	.	.	.	.	.	.	.	.	.	.	.	.	.	.	.	.	.	.	.	.	.
!LO:SIC:o=32Re/	!	!	!	!	!	!	!	!	!	!	!	!	!	!	!	!	!	!	!	!	!	!	!	!	!	!	!	!	!	!	!	!	!	!	!	!	!	!	!	!	!	!	!	!
32C/	.	4G\	.	4G\	.	32g 32c\	.	32cc 32e/	.	32ee 32cc\	.	.	.	.	.	.	.	.	.	.	.	.	.	.	.	4G 4GG/	.	.	.	.	.	.	.	4G 4GG/	.	.	.	.	.	.	.	.	.	.
!LO:SIC:o=32Re/	!	!	!	!	!	!	!	!	!	!	!	!	!	!	!	!	!	!	!	!	!	!	!	!	!	!	!	!	!	!	!	!	!	!	!	!	!	!	!	!	!	!	!	!
32C/	.	.	.	.	.	32g 32c\	.	32cc 32e/	.	32ee 32cc\	.	.	.	.	.	.	.	.	.	.	.	.	.	.	.	.	.	.	.	.	.	.	.	.	.	.	.	.	.	.	.	.	.	.
!LO:SIC:o=32Re/	!	!	!	!	!	!	!	!	!	!	!	!	!	!	!	!	!	!	!	!	!	!	!	!	!	!	!	!	!	!	!	!	!	!	!	!	!	!	!	!	!	!	!	!
32C/	.	.	.	.	.	32g 32c\	.	32cc 32e/	.	32ee 32cc\	.	.	.	.	.	.	.	.	.	.	.	.	.	.	.	.	.	.	.	.	.	.	.	.	.	.	.	.	.	.	.	.	.	.
!LO:SIC:o=32Re/	!	!	!	!	!	!	!	!	!	!	!	!	!	!	!	!	!	!	!	!	!	!	!	!	!	!	!	!	!	!	!	!	!	!	!	!	!	!	!	!	!	!	!	!
32C/	.	.	.	.	.	32g 32c\	.	32cc 32e/	.	32ee 32cc\	.	.	.	.	.	.	.	.	.	.	.	.	.	.	.	.	.	.	.	.	.	.	.	.	.	.	.	.	.	.	.	.	.	.
!LO:SIC:o=32Re/	!	!	!	!	!	!	!	!	!	!	!	!	!	!	!	!	!	!	!	!	!	!	!	!	!	!	!	!	!	!	!	!	!	!	!	!	!	!	!	!	!	!	!	!
32C/	.	.	.	.	.	32g 32c\	.	32cc 32e/	.	32ee 32cc\	.	.	.	.	.	.	.	.	.	.	.	.	.	.	.	.	.	.	.	.	.	.	.	.	.	.	.	.	.	.	.	.	.	.
!LO:SIC:o=32Re/	!	!	!	!	!	!	!	!	!	!	!	!	!	!	!	!	!	!	!	!	!	!	!	!	!	!	!	!	!	!	!	!	!	!	!	!	!	!	!	!	!	!	!	!
32C/	.	.	.	.	.	32g 32c\	.	32cc 32e/	.	32ee 32cc\	.	.	.	.	.	.	.	.	.	.	.	.	.	.	.	.	.	.	.	.	.	.	.	.	.	.	.	.	.	.	.	.	.	.
!LO:SIC:o=32Re/	!	!	!	!	!	!	!	!	!	!	!	!	!	!	!	!	!	!	!	!	!	!	!	!	!	!	!	!	!	!	!	!	!	!	!	!	!	!	!	!	!	!	!	!
32C/	.	.	.	.	.	32g 32c\	.	32cc 32e/	.	32ee 32cc\	.	.	.	.	.	.	.	.	.	.	.	.	.	.	.	.	.	.	.	.	.	.	.	.	.	.	.	.	.	.	.	.	.	.
!LO:SIC:o=32Re/	!	!	!	!	!	!	!	!	!	!	!	!	!	!	!	!	!	!	!	!	!	!	!	!	!	!	!	!	!	!	!	!	!	!	!	!	!	!	!	!	!	!	!	!
32C/	.	.	.	.	.	32g 32c\	.	32cc 32e/	.	32ee 32cc\	.	.	.	.	.	.	.	.	.	.	.	.	.	.	.	.	.	.	.	.	.	.	.	.	.	.	.	.	.	.	.	.	.	.
!LO:SIC:o=32Re/	!	!	!	!	!	!	!	!	!	!	!	!	!	!	!	!	!	!	!	!	!	!	!	!	!	!	!	!	!	!	!	!	!	!	!	!	!	!	!	!	!	!	!	!
32C/	.	4E\	.	4E\	.	32g 32c\	.	32cc 32e/	.	32ee 32cc\	.	.	.	.	.	.	.	.	.	.	.	.	.	.	.	4E 4EE/	.	.	.	.	.	.	.	4E 4EE/	.	.	.	.	.	.	.	.	.	.
!LO:SIC:o=32Re/	!	!	!	!	!	!	!	!	!	!	!	!	!	!	!	!	!	!	!	!	!	!	!	!	!	!	!	!	!	!	!	!	!	!	!	!	!	!	!	!	!	!	!	!
32C/	.	.	.	.	.	32g 32c\	.	32cc 32e/	.	32ee 32cc\	.	.	.	.	.	.	.	.	.	.	.	.	.	.	.	.	.	.	.	.	.	.	.	.	.	.	.	.	.	.	.	.	.	.
!LO:SIC:o=32Re/	!	!	!	!	!	!	!	!	!	!	!	!	!	!	!	!	!	!	!	!	!	!	!	!	!	!	!	!	!	!	!	!	!	!	!	!	!	!	!	!	!	!	!	!
32C/	.	.	.	.	.	32g 32c\	.	32cc 32e/	.	32ee 32cc\	.	.	.	.	.	.	.	.	.	.	.	.	.	.	.	.	.	.	.	.	.	.	.	.	.	.	.	.	.	.	.	.	.	.
!LO:SIC:o=32Re/	!	!	!	!	!	!	!	!	!	!	!	!	!	!	!	!	!	!	!	!	!	!	!	!	!	!	!	!	!	!	!	!	!	!	!	!	!	!	!	!	!	!	!	!
32C/	.	.	.	.	.	32g 32c\	.	32cc 32e/	.	32ee 32cc\	.	.	.	.	.	.	.	.	.	.	.	.	.	.	.	.	.	.	.	.	.	.	.	.	.	.	.	.	.	.	.	.	.	.
!LO:SIC:o=32Re/	!	!	!	!	!	!	!	!	!	!	!	!	!	!	!	!	!	!	!	!	!	!	!	!	!	!	!	!	!	!	!	!	!	!	!	!	!	!	!	!	!	!	!	!
32C/	.	.	.	.	.	32g 32c\	.	32cc 32e/	.	32ee 32cc\	.	.	.	.	.	.	.	.	.	.	.	.	.	.	.	.	.	.	.	.	.	.	.	.	.	.	.	.	.	.	.	.	.	.
!LO:SIC:o=32Re/	!	!	!	!	!	!	!	!	!	!	!	!	!	!	!	!	!	!	!	!	!	!	!	!	!	!	!	!	!	!	!	!	!	!	!	!	!	!	!	!	!	!	!	!
32C/	.	.	.	.	.	32g 32c\	.	32cc 32e/	.	32ee 32cc\	.	.	.	.	.	.	.	.	.	.	.	.	.	.	.	.	.	.	.	.	.	.	.	.	.	.	.	.	.	.	.	.	.	.
!LO:SIC:o=32Re/	!	!	!	!	!	!	!	!	!	!	!	!	!	!	!	!	!	!	!	!	!	!	!	!	!	!	!	!	!	!	!	!	!	!	!	!	!	!	!	!	!	!	!	!
32C/	.	.	.	.	.	32g 32c\	.	32cc 32e/	.	32ee 32cc\	.	.	.	.	.	.	.	.	.	.	.	.	.	.	.	.	.	.	.	.	.	.	.	.	.	.	.	.	.	.	.	.	.	.
!LO:SIC:o=32Re/JJJ	!	!	!	!	!	!	!	!	!	!	!	!	!	!	!	!	!	!	!	!	!	!	!	!	!	!	!	!	!	!	!	!	!	!	!	!	!	!	!	!	!	!	!	!
32C/JJJ	.	.	.	.	.	32gJJJ 32c\	.	32ccJJJ 32e/	.	32eeJJJ 32cc\	.	.	.	.	.	.	.	.	.	.	.	.	.	.	.	.	.	.	.	.	.	.	.	.	.	.	.	.	.	.	.	.	.	.
=16	=16	=16	=16	=16	=16	=16	=16	=16	=16	=16	=16	=16	=16	=16	=16	=16	=16	=16	=16	=16	=16	=16	=16	=16	=16	=16	=16	=16	=16	=16	=16	=16	=16	=16	=16	=16	=16	=16	=16	=16	=16	=16	=16	=16
*	*	*	*	*	*	*	*	*	*	*	*	*	*	*	*	*	*	*	*	*	*	*	*	*	*	*	*	*	*	*	*	*	*	*	*	*	*	*	*^	*	*	*	*	*
!LO:SIC:o=4Re/	!	!	!	!	!	!	!	!	!	!	!	!	!	!	!	!	!	!	!	!	!	!	!	!	!	!	!	!	!	!	!	!	!	!	!	!	!	!	!	!	!	!	!	!	!
4C/	.	4C/	.	4C/	.	4g 4c\	.	4cc 4e/	.	4ee 4cc\	.	4C/	-ty	.	4e 4c\	.	.	.	4g\	.	.	4ee/	4cc\	-ty!	.	4C 4CC/	.	4c\	.	4e\	.	4cc 4c/	.	4C 4CC/	.	4ee 4g/	4ryy	.	4gg] 4ee\]	4ryy	.	4ccc\	.	4eee\	.
!	!	!	!	!	!	!	!	!	!	!	!	!	!	!	!	!	!	!	!	!	!	!	!	!	!	!	!	!	!	!	!	!	!	!	!	!	!	!LO:DY:a:rj	!	!	!LO:DY:a:rj	!	!	!	!
4r	.	4r	.	4r	.	4r	.	4r	.	4r	.	4r	.	.	4r	.	.	.	4r	.	.	4r	4ryy	.	.	4r	.	4r	.	4r	.	4r	.	4r	.	2cc/	4rd	p	2cc/	4rd	p	4r	.	4r	.
!	!	!	!	!	!	!	!	!	!	!	!LO:DY:b	!	!	!	!	!	!	!	!	!	!	!	!	!	!	!	!	!	!	!	!	!	!	!	!	!	!	!	!	!	!	!	!	!	!
2r	.	2r	.	2r	.	4r	pp	4r	.	4r	pp	2r	.	.	2r	.	.	.	2r	.	.	2r	2ryy	.	.	2r	.	2r	.	2r	.	2r	.	2r	.	.	2rd	.	.	2rd	.	2r	.	2r	.
!	!	!	!	!	!	!	!	!	!	!	!	!	!	!	!	!	!	!	!	!	!	!	!	!	!	!	!	!	!	!	!	!	!	!	!	!	!	!	!	!	!	!	!	!	!
.	.	.	.	.	.	4c\	.	4e/	.	4gg\	.	.	.	.	.	.	.	.	.	.	.	.	.	.	.	.	.	.	.	.	.	.	.	.	.	4cc/	.	.	4cc/	.	.	.	.	.	.
*	*	*	*	*	*	*	*	*	*	*	*	*	*	*	*	*	*	*	*	*	*	*v	*v	*	*	*	*	*	*	*	*	*	*	*	*	*	*	*	*	*	*	*	*	*	*
=17	=17	=17	=17	=17	=17	=17	=17	=17	=17	=17	=17	=17	=17	=17	=17	=17	=17	=17	=17	=17	=17	=17	=17	=17	=17	=17	=17	=17	=17	=17	=17	=17	=17	=17	=17	=17	=17	=17	=17	=17	=17	=17	=17	=17
*>C	*>C	*>C	*>C	*>C	*>C	*>C	*>C	*>C	*>C	*>C	*>C	*>C	*>C	*>C	*>C	*>C	*>C	*>C	*>C	*>C	*>C	*>C	*>C	*>C	*>C	*>C	*>C	*>C	*>C	*>C	*>C	*>C	*>C	*>C	*>C	*>C	*>C	*>C	*>C	*>C	*>C	*>C	*>C	*>C
1r	.	1r	.	1r	.	1c	.	(>4a/	.	(4ccc\	.	1r	.	.	1r	.	.	.	1r	.	.	1r	.	.	1r	.	1r	.	1r	.	1r	.	1r	.	1cc	1rc	.	1cc	1rc	.	1r	.	1r	.
.	.	.	.	.	.	.	.	4f/	.	4aa\	.	.	.	.	.	.	.	.	.	.	.	.	.	.	.	.	.	.	.	.	.	.	.	.	.	.	.	.	.	.	.	.	.	.
.	.	.	.	.	.	.	.	4e/	.	4gg\	.	.	.	.	.	.	.	.	.	.	.	.	.	.	.	.	.	.	.	.	.	.	.	.	.	.	.	.	.	.	.	.	.	.
.	.	.	.	.	.	.	.	4g/)	.	4ee\)	.	.	.	.	.	.	.	.	.	.	.	.	.	.	.	.	.	.	.	.	.	.	.	p	.	.	.	.	.	.	.	p	.	.
*	*	*	*	*	*	*	*	*	*	*	*	*	*	*	*	*	*	*	*	*	*	*	*	*	*	*	*	*	*	*	*	*	*	*	*v	*v	*	*	*	*	*	*	*	*
=18	=18	=18	=18	=18	=18	=18	=18	=18	=18	=18	=18	=18	=18	=18	=18	=18	=18	=18	=18	=18	=18	=18	=18	=18	=18	=18	=18	=18	=18	=18	=18	=18	=18	=18	=18	=18	=18	=18	=18	=18	=18	=18	=18
*	*	*	*	*	*	*	*	*	*	*	*	*	*	*	*	*	*	*	*	*	*	*	*	*	*	*	*	*	*	*	*	*	*^	*	*	*	*	*	*	*	*	*	*
1r	.	1r	.	1r	.	4f\	.	4a/	.	4dd\	.	1r	.	.	1r	.	.	.	1r	.	.	1r	.	.	1r	.	1r	.	1r	.	1r	.	(4B\	1rGG	.	1r	.	[1cc	1a	.	(1dd	\.	1r	.
.	.	.	.	.	.	4r	.	4r	.	4r	.	.	.	.	.	.	.	.	.	.	.	.	.	.	.	.	.	.	.	.	.	.	4A\	.	.	.	.	.	.	.	.	.	.	.
.	.	.	.	.	.	2r	.	2r	.	2r	.	.	.	.	.	.	.	.	.	.	.	.	.	.	.	.	.	.	.	.	.	.	4B\	.	.	.	.	.	.	.	.	.	.	.
.	.	.	.	.	.	.	.	.	.	.	.	.	.	.	.	.	.	.	.	.	.	.	.	.	.	.	.	.	.	.	.	.	4B#X\)	.	.	.	.	.	.	.	.	.	.	.
=19	=19	=19	=19	=19	=19	=19	=19	=19	=19	=19	=19	=19	=19	=19	=19	=19	=19	=19	=19	=19	=19	=19	=19	=19	=19	=19	=19	=19	=19	=19	=19	=19	=19	=19	=19	=19	=19	=19	=19	=19	=19	=19	=19	=19
1r	.	1r	.	1r	.	1r	.	1r	.	1r	.	1r	.	.	1r	.	.	.	1r	.	.	1r	.	.	1r	.	1r	.	1r	.	1r	.	(4c\	1rGG	.	1r	.	2.cc/]	2.g\	.	2ee/	.	1r	.
.	.	.	.	.	.	.	.	.	.	.	.	.	.	.	.	.	.	.	.	.	.	.	.	.	.	.	.	.	.	.	.	.	4C/)	.	.	.	.	.	.	.	.	.	.	.
.	.	.	.	.	.	.	.	.	.	.	.	.	.	.	.	.	.	.	.	.	.	.	.	.	.	.	.	.	.	.	.	.	(4c\	.	.	.	.	.	.	.	4dd/	.	.	.
.	.	.	.	.	.	.	.	.	.	.	.	.	.	.	.	.	.	.	.	.	.	.	.	.	.	.	.	.	.	.	.	.	4C/)	.	.	.	.	4b/	4fn\	.	4gg/)	.	.	.
*	*	*	*	*	*	*	*	*	*	*	*	*	*	*	*	*	*	*	*	*	*	*	*	*	*	*	*	*	*	*	*	*	*v	*v	*	*	*	*v	*v	*	*	*	*	*
==	==	==	==	==	==	==	==	==	==	==	==	==	==	==	==	==	==	==	==	==	==	==	==	==	==	==	==	==	==	==	==	==	==	==	==	==	==	==	==	==	==	==
*-	*-	*-	*-	*-	*-	*-	*-	*-	*-	*-	*-	*-	*-	*-	*-	*-	*-	*-	*-	*-	*-	*-	*-	*-	*-	*-	*-	*-	*-	*-	*-	*-	*-	*-	*-	*-	*-	*-	*-	*-	*-	*-
!!!system-decoration: [(<g1>{g2}{g3})({g4,p16}{g5}p19)]
!!!RDF**kern: > = above
!!!ENC: Marta Lawrence
!!!END: 2021-04-29
!!!ENC: Mateusz Solarz
!!!END: 2021-04-13
